<?xml version="1.0" encoding="UTF-8"?>
<map version="1.10" tiledversion="1.11.2" orientation="orthogonal" renderorder="right-down" width="25" height="110" tilewidth="16" tileheight="16" infinite="0" nextlayerid="12" nextobjectid="1">
 <tileset firstgid="1" source="decorations.tsx"/>
 <tileset firstgid="257" source="DynamicEnemy.tsx"/>
 <tileset firstgid="443" source="MoriaSprite.tsx"/>
 <tileset firstgid="3003" source="KnifesTrap.tsx"/>
 <tileset firstgid="3013" source="Key.tsx"/>
 <layer id="2" name="Ground" width="25" height="110">
  <data encoding="csv">
2684355945,2684355881,2684356009,2684355945,2684355945,2684355945,2684356009,2684355945,2684355945,2684355946,2684355881,2684356009,2684355945,2684355951,2684355946,2684355882,2684356010,2684355946,2684355946,2684355946,2684355946,2684355946,2684355946,2684355946,2684355946,
2684355946,2684355882,2684356010,2684355946,2684355946,2684355946,2684356010,2684355946,2684355946,2684355945,2684355882,2684356010,2684355946,2684355951,2684355945,2684355881,2684356009,2684355945,2684355945,2684355945,2684355945,2684355945,2684355945,2684355945,2684355945,
2684355887,2684355951,2684355887,2684356009,2684355945,2684355881,2684356009,2684355945,2684355945,2684355945,2684355945,2684355945,2684355945,2684355945,2684355945,2684355945,2684355946,2684355945,2684355881,2684356009,2684355945,2684355887,2684356009,2684355945,2684355881,
2684355881,2684356009,2684355945,2684355951,2684355946,2684355882,2684356010,2684355946,2684355946,2684355946,2684355946,2684355946,2684355946,2684355946,2684355946,2684355946,2684355945,2684355946,2684355882,2684356010,2684355946,2684356015,2684355951,2684355946,2684355882,
2684355882,2684356010,2684355946,2684355951,2684355945,2684355881,2684356009,2684355945,2684355945,2684355945,2684355945,2684355945,2684355945,2684355945,2684355945,2684355945,2684355946,2684355945,2684355881,2684356009,2684355945,2684356015,2684355951,2684355945,2684355881,
2684355951,2684355887,2684356009,2684355945,2684355881,2684356009,2684355945,2684355946,2684355946,2684355946,2684355946,2684355946,2684355946,2684355946,2684355946,2684355946,2684355945,2684355946,2684355882,2684356010,2684355946,2684355954,2684355951,2684355946,2684355882,
2684355951,2684355887,2684356009,2684355945,2684355881,2684356009,2684355945,2684355945,2684355945,2684355945,2684355945,2684355945,2684355945,2684355945,2684355945,2684355945,2684355946,2684355945,2684355881,2684356009,2684355945,2684355951,2684355887,2684355945,2684355881,
2684355951,2684355887,2684356009,2684355945,2684355881,2684356009,2684355945,2684355946,2684355946,2684355946,2684355946,2684355946,2684355946,2684355946,2684355946,2684355946,2684355945,2684355946,2684355882,2684356010,2684355946,2684356015,2684356015,2684355946,2684355882,
2684355887,2684355951,2684355887,2684356009,2684355945,2684355881,2684356009,2684355945,2684355945,2684355945,2684355945,2684355945,2684355945,2684355945,2684355945,2684355945,2684355946,2684355945,2684355881,2684356009,2684355945,2684356016,2684356016,2684355945,2684355881,
2684355882,2684355945,2684356015,2684355951,2684355946,2684355882,2684356010,2684355946,2684355946,2684355946,2684355946,2684355946,2684355946,2684355946,2684355946,2684355946,2684355945,2684355946,2684355882,2684356010,2684355946,2684355882,2684356010,2684355946,2684355882,
2684355882,2684355945,2684356015,2684355951,2684355945,2684355881,2684356009,2684355945,2684355945,2684355945,2684355945,2684355945,2684355945,2684355945,2684355945,2684355945,2684355948,2684355945,2684356393,2684356329,2684355945,2684356009,2684355945,2684355881,2684356009,
2684355948,2684355945,2684355954,2684355951,2684355946,2684355882,2684356010,2684355946,2684355882,2684355882,2684355945,2684356015,2684355951,2684355945,2684355881,2684356009,2684355945,2684355882,2684355882,2684355954,2684355887,2684355951,2684355887,2684356009,2684355945,
2684355954,2684355887,2684355951,2684355887,2684356009,2684355945,2684355881,2684356009,2684355945,2684355948,2684355945,2684355954,2684355951,2684355946,2684355882,2684356010,2684355946,2684355882,2684355882,2684355882,2684355882,2684355945,2684356015,2684355951,2684355946,
2684355881,2684356009,2684355945,2684355951,2684355946,2684355882,2684356010,2684355946,2684355946,2684355946,2684355946,2684355946,2684355946,2684355946,2684355946,2684355946,2684355945,2684355946,2684355882,2684356010,2684355946,2684356015,2684355951,2684355946,2684355882,
2684355882,2684356010,2684355946,2684355951,2684355945,2684355881,2684356009,2684355945,2684355945,2684355945,2684355945,2684355945,2684355945,2684355945,2684355945,2684355945,2684355946,2684355945,2684355881,2684356009,2684355945,2684356015,2684355951,2684355945,2684355881,
2684355951,2684355887,2684356009,2684355945,2684355881,2684356009,2684355945,2684355946,2684355946,2684355946,2684355946,2684355946,2684355946,2684355946,2684355946,2684355946,2684355945,2684355946,2684355882,2684356010,2684355946,2684355954,2684355951,2684355946,2684355882,
2684355951,2684355887,2684356009,2684355945,2684355881,2684356009,2684355945,2684355945,2684355945,2684355945,2684355945,2684355945,2684355945,2684355945,2684355945,2684355945,2684355946,2684355945,2684355881,2684356009,2684355945,2684355951,2684355887,2684355945,2684355881,
2684355951,2684355887,2684356009,2684355945,2684355881,2684356009,2684355945,2684355946,2684355946,2684355946,2684355946,2684355946,2684355946,2684355946,2684355946,2684355946,2684355945,2684355946,2684355882,2684356010,2684355946,2684356015,2684356015,2684355946,2684355882,
2684355887,2684355951,2684355887,2684356009,2684355945,2684355881,2684356009,2684355945,2684355945,2684355945,2684355945,2684355945,2684355945,2684355945,2684355945,2684355945,2684355946,2684355945,2684355881,2684356009,2684355945,2684356016,2684356016,2684355945,2684355881,
2684355882,2684355945,2684356015,2684355951,2684355946,2684355882,2684356010,2684355946,2684355946,2684355946,2684355946,2684355946,2684355946,2684355946,2684355946,2684355946,2684355945,2684355946,2684355882,2684356010,2684355946,2684355882,2684356010,2684355946,2684355882,
2684355882,2684355945,2684356015,2684355951,2684355945,2684355881,2684356009,2684355945,2684355945,2684355945,2684355945,2684355945,2684355945,2684355945,2684355945,2684355945,2684355948,2684355945,2684356393,2684356329,2684355945,2684356009,2684355945,2684355881,2684356009,
2684355948,2684355945,2684355954,2684355951,2684355946,2684355882,2684356010,2684355946,2684355882,2684355882,2684355945,2684356015,2684355951,2684355945,2684355881,2684356009,2684355945,2684355882,2684355882,2684355954,2684355887,2684355951,2684355887,2684356009,2684355945,
2684355954,2684355887,2684355951,2684355887,2684356009,2684355945,2684355881,2684356009,2684355945,2684355948,2684355945,2684355954,2684355951,2684355946,2684355882,2684356010,2684355946,2684355882,2684355882,2684355882,2684355882,2684355945,2684356015,2684355951,2684355946,
2684355882,2684355882,2684355945,2684356015,2684355951,2684355946,2684355882,2684356010,2684355946,2684355882,2684356015,2684355951,2684355887,2684355945,2684355881,2684356009,2684355945,2684355948,2684355948,2684355882,2684355882,2684355945,2684356015,2684355951,2684355945,
2684355882,2684355882,2684355945,2684356015,2684355951,2684355945,2684355881,2684356009,2684355945,2684355954,2684355887,2684355951,2684355887,2684356009,2684355945,2684355881,2684356009,2684355945,2684355951,2684355887,2684356009,2684355945,2684355881,2684356009,2684355945,
2684355948,2684355948,2684355945,2684355954,2684355951,2684355946,2684355882,2684356010,2684355946,2684355954,2684355887,2684355951,2684355887,2684356009,2684355945,2684355881,2684356009,2684355945,2684355945,2684356015,2684355951,2684355946,2684355882,2684356010,2684355946,
2684355882,2684355882,2684356015,2684355951,2684355887,2684355945,2684355881,2684356009,2684355945,2684355882,2684355882,2684355945,2684356015,2684355951,2684355946,2684355882,2684356010,2684355946,2684355945,2684356015,2684355951,2684355945,2684355881,2684356009,2684355945,
2684355948,2684355882,2684356015,2684356015,2684356015,2684355946,2684355882,2684356010,2684355946,2684355882,2684355882,2684355945,2684356015,2684355951,2684355945,2684355881,2684356009,2684355945,2684355945,2684355954,2684355951,2684355946,2684355882,2684356010,2684355946,
2684355882,2684355882,2684356016,2684356016,2684356016,2684355945,2684355881,2684356009,2684355945,2684355948,2684355948,2684355945,2684355954,2684355951,2684355946,2684355882,2684356010,2684355946,2684356015,2684355951,2684355887,2684355945,2684355881,2684356009,2684355945,
2684355948,2684355948,2684355946,2684355882,2684356010,2684355946,2684355882,2684356010,2684355946,2684355882,2684355882,2684356015,2684355951,2684355887,2684355945,2684355881,2684356009,2684355945,2684356015,2684356015,2684356015,2684355946,2684355882,2684356010,2684355946,
2684355948,2684356009,2684355945,2684355881,2684355948,2684355945,2684356393,2684356329,2684355945,2684355948,2684355882,2684356015,2684356015,2684356015,2684355946,2684355882,2684356010,2684355946,2684356016,2684356016,2684356016,2684355945,2684355881,2684356009,2684355945,
2684356010,2684355946,2684355882,2684356010,2684355946,2684356010,2684355946,2684355946,2684356015,2684355882,2684355882,2684356016,2684356016,2684356016,2684355945,2684355881,2684356009,2684355945,2684355946,2684355882,2684356010,2684355946,2684355882,2684356010,2684355946,
2684355948,2684355945,2684356393,2684356329,2684355945,2684356009,2684355945,2684355945,2684356016,2684355948,2684355948,2684355946,2684355882,2684356010,2684355946,2684355882,2684356010,2684355946,2684355945,2684355881,2684355948,2684355945,2684356393,2684356329,2684355945,
2684355948,2684355945,2684356393,2684356329,2684355945,2684356010,2684355946,2684355946,2684355882,2684355948,2684356009,2684355945,2684355881,2684355948,2684355945,2684356393,2684356329,2684355945,2684355946,2684355882,2684355882,2684356015,2684355951,2684355887,2684355945,
2684355945,2684355951,2684355887,2684356009,2684355945,2684355881,2684356009,2684355945,2684355945,2684355945,2684355945,2684356393,2684356329,2684355945,2684355882,2684356010,2684355946,2684356016,2684355945,2684355948,2684355882,2684356015,2684356015,2684356015,2684355946,
2684355946,2684355945,2684356015,2684355951,2684355946,2684355882,2684356010,2684355946,2684355946,2684355946,2684356015,2684355951,2684355887,2684355945,2684355881,2684356009,2684355945,1456,1327,2684355882,2684355882,2684356016,2684356016,2684356016,2684355945,
2684355945,2684355945,2684356015,2684355951,2684355945,2684355881,2684356009,2684355945,2684355945,2684355945,2684356015,2684356015,2684356015,2684355946,2684355882,2684356010,2684355946,1386,1391,2684356009,2684355945,2684355946,2684355882,2684356010,2684355946,
2684355946,2684355945,2684355954,2684355951,2684355946,2684355882,2684356010,2684355946,2684355946,2684355946,2684356016,2684356016,2684356016,2684355945,2684355881,2684356009,2684355945,2684355946,2684355882,2684356010,2684355946,2684355951,2684355887,2684356009,2684355945,
2684356010,2684355946,2684356009,2684355945,2684355881,2684356009,2684355945,2684355945,2684355887,2684355951,2684355887,2684356009,2684355945,2684355881,2684356009,2684355945,2684355945,2684355945,2684355945,2684355945,2684355945,2684355945,2684355945,2684355945,2684355946,
2684356009,2684355945,2684355945,2684355945,2684356009,2684355945,2684355945,2684355946,2684355881,2684356009,2684355945,2684355951,2684355946,2684355882,2684356010,2684355946,2684355946,2684355946,2684355946,2684355946,2684355946,2684355946,2684355946,2684355946,2684355945,
2684356010,2684355946,2684355946,2684355946,2684356010,2684355946,2684355946,2684355945,2684355882,2684356010,2684355946,2684355951,2684355945,2684355881,2684356009,2684355945,2684355945,2684355945,2684355945,2684355945,2684355945,2684355945,2684355945,2684355945,2684355946,
2684356009,2684355945,2684355945,2684355945,2684356009,2684355945,2684355945,2684355946,2684355951,2684355887,2684356009,2684355945,2684355881,2684356009,2684355945,2684355946,2684355946,2684355946,2684355946,2684355946,2684355946,2684355946,2684355946,2684355946,2684355945,
2684356010,2684355946,2684355946,2684355946,2684356010,2684355946,2684355946,2684355945,2684355951,2684355887,2684356009,2684355945,2684355881,2684356009,2684355945,2684355945,2684355945,2684355945,2684355945,2684355945,2684355945,2684355945,2684355945,2684355945,2684355946,
2684356009,2684355945,2684355945,2684355945,2684356009,2684355945,2684355945,2684355946,2684355951,2684355887,2684356009,2684355945,2684355881,2684356009,2684355945,2684355946,2684355946,2684355946,2684355946,2684355946,2684355946,2684355946,2684355946,2684355946,2684355945,
2684356010,2684355946,2684355946,2684355946,2684356010,2684355946,2684355946,2684355945,2684355887,2684355951,2684355887,2684356009,2684355945,2684355881,2684356009,2684355945,2684355945,2684355945,2684355945,2684355945,2684355945,2684355945,2684355945,2684355945,2684355946,
2684355887,2684355951,2684355887,2684356009,2684355945,2684355881,2684356009,2684355945,2684355882,2684355945,2684356015,2684355951,2684355946,2684355882,2684356010,2684355946,2684355946,2684355946,2684355946,2684355946,2684355946,2684355946,2684355946,2684355946,2684355945,
2684355882,2684355945,2684356015,2684355951,2684355946,2684355882,2684356010,2684355946,2684355882,2684355945,2684356015,2684355951,2684355945,2684355881,2684356009,2684355945,2684355945,2684355945,2684355945,2684355945,2684355945,2684355945,2684355945,2684355945,2684355948,
2684355882,2684355945,2684356015,2684355951,2684355945,2684355881,2684356009,2684355945,2684355948,2684355945,2684355954,2684355951,2684355946,2684355882,2684356010,2684355946,2684355882,2684355882,2684355945,2684356015,2684355951,2684355945,2684355881,2684356009,2684355945,
2684355948,2684355945,2684355954,2684355951,2684355946,2684355882,2684356010,2684355946,2684355954,2684355887,2684355951,2684355887,2684356009,2684355945,2684355881,2684356009,2684355945,2684355948,2684355945,2684355954,2684355951,2684355946,2684355882,2684356010,2684355946,
2684355882,2684356015,2684355951,2684355887,2684355945,2684355881,2684356009,2684355945,2684355882,2684355882,2684355945,2684356015,2684355951,2684355946,2684355882,2684356010,2684355946,2684355882,2684356015,2684355951,2684355887,2684355945,2684355881,2684356009,2684355945,
2684355882,2684356015,2684356015,2684356015,2684355946,2684355882,2684356010,2684355946,2684355882,2684355882,2684355945,2684356015,2684355951,2684355945,2684355881,2684356009,2684355945,2684355954,2684355887,2684355951,2684355887,2684356009,2684355945,2684355881,2684356009,
2684355882,2684356016,2684356016,2684356016,2684355945,2684355881,2684356009,2684355945,2684355948,2684355948,2684355945,2684355954,2684355951,2684355946,2684355882,2684356010,2684355946,2684355954,2684355887,2684355951,2684355887,2684356009,2684355945,2684355881,2684356009,
2684355948,2684355946,2684355882,2684356010,2684355946,2684355882,2684356010,2684355946,2684355882,2684355882,2684356015,2684355951,2684355887,2684355945,2684355881,2684356009,2684355945,2684355882,2684355882,2684355945,2684356015,2684355951,2684355946,2684355882,2684356010,
2684356009,2684355945,2684355881,2684355948,2684355945,2684356393,2684356329,2684355945,2684355948,2684355882,2684356015,2684356015,2684356015,2684355946,2684355882,2684356010,2684355946,2684355882,2684355882,2684355945,2684356015,2684355951,2684355945,2684355881,2684356009,
2684356329,2684355945,2684356329,2684355945,2684355945,2684355945,2684355945,2684355951,2684355882,2684355882,2684356016,2684356016,2684356016,2684355945,2684355881,2684356009,2684355945,2684355948,2684355948,2684355945,2684355954,2684355951,2684355946,2684355882,2684356010,
2684355946,2684355882,2684356010,2684355946,2684356010,2684355946,2684356015,2684356015,2684355948,2684355948,2684355946,2684355882,2684356010,2684355946,2684355882,2684356010,2684355946,2684355882,2684355882,2684356015,2684355951,2684355887,2684355945,2684355881,2684356009,
2684355945,2684356393,2684356329,2684355945,2684356009,2684355945,2684356016,2684356016,2684355948,2684356009,2684355945,2684355881,2684355948,2684355945,2684356393,2684356329,2684355945,2684355948,2684355882,2684356015,2684356015,2684356015,2684355946,2684355882,2684356010,
2684356009,2684355945,2684355946,2684355882,2684356010,2684355946,2684355946,2684355882,2684356010,2684355946,2684355882,2684356010,2684355946,2684356010,2684355946,2684355946,2684356015,2684355882,2684355882,2684356016,2684356016,2684356016,2684355945,2684355881,2684356009,
2684356010,2684355946,2684355945,2684355881,2684356009,2684355945,2684355945,2684355881,2684355948,2684355945,2684356393,2684356329,2684355945,2684356009,2684355945,2684355945,2684356016,2684355948,2684355948,2684355946,2684355882,2684356010,2684355946,2684355882,2684356010,
2684356009,2684355945,2684355946,2684355882,2684356010,2684355946,2684355945,2684355881,2684355948,2684355945,2684356393,2684356329,2684355945,2684356010,2684355946,2684355946,2684355882,2684355948,2684356009,2684355945,2684355881,2684355948,2684355945,2684356393,2684356329,
2684355954,2684355887,2684355951,2684355887,2684356009,2684355945,2684355881,2684356009,2684355945,2684355951,2684355887,2684356009,2684355945,2684355881,2684356009,2684355945,2684355945,2684355945,2684355945,2684356393,2684356329,2684355945,2684355882,2684356010,2684355946,
2684355882,2684355882,2684355945,2684356015,2684355951,2684355946,2684355882,2684356010,2684355946,2684355945,2684356015,2684355951,2684355946,2684355882,2684356010,2684355946,2684355946,2684355946,2684356015,2684355951,2684355887,2684355945,2684355881,2684356009,2684355945,
2684355882,2684355882,2684355945,2684356015,2684355951,2684355945,2684355881,2684356009,2684355945,2684355945,2684356015,2684355951,2684355945,2684355881,2684356009,2684355945,2684355945,2684355945,2684356015,2684356015,2684356015,2684355946,2684355882,2684356010,2684355946,
2684355948,2684355948,2684355945,2684355954,2684355951,2684355946,2684355882,2684356010,2684355946,2684355945,2684355954,2684355951,2684355946,2684355882,2684356010,2684355946,2684355946,2684355946,2684356016,2684356016,2684356016,2684355945,2684355881,2684356009,2684355945,
2684355882,2684355882,2684356015,2684355951,2684355887,2684355945,2684355881,2684356009,2684355945,2684356015,2684355951,2684355887,2684355945,2684355881,2684356009,2684355945,2684355945,2684355945,2684355946,2684355882,2684356010,2684355946,2684355882,2684356010,2684355946,
2684355948,2684355882,2684356015,2684356015,2684356015,2684355946,2684355882,2684356010,2684355946,2684356015,2684356015,2684356015,2684355946,2684355882,2684356010,2684355946,2684355946,2684355946,2684355945,2684355881,2684355948,2684355954,2684355954,2684355887,2684355951,
2684355882,2684355882,2684356016,2684356016,2684356016,2684355945,2684355881,2684356009,2684355945,2684356016,2684356016,2684356016,2684355945,2684355881,2684356009,2684355945,2684355945,2684355945,2684355945,2684355881,2684356009,2684355882,2684355882,2684355882,2684355945,
2684355948,2684355948,2684355946,2684355882,2684356010,2684355946,2684355882,2684356010,2684355946,2684355946,2684355882,2684356010,2684355946,2684355882,2684356010,2684355946,2684355946,2684355946,2684355954,2684355887,2684355951,2684355887,2684356009,2684355945,2684355881,
2684355948,2684356009,2684355945,2684355881,2684355948,2684355945,2684356393,2684356329,2684355945,2684355945,2684355881,2684355948,2684355945,2684356393,2684356329,2684355945,2684355945,2684355945,2684355882,2684355882,2684355945,2684356015,2684355951,2684355946,2684355882,
2684356009,2684355945,2684355945,2684355945,2684355945,2684355881,2684356009,2684355948,2684355882,2684356015,2684356015,2684356015,2684355946,2684355882,2684356010,2684355946,2684355945,2684355951,2684355882,2684355882,2684355945,2684356015,2684355951,2684355945,2684355881,
2684356010,2684355946,2684355946,2684355946,2684355946,2684355882,2684356010,2684355882,2684355882,2684356016,2684356016,2684356016,2684355945,2684355881,2684356009,2684355945,2684355881,2684356009,2684355948,2684355948,2684355945,2684355954,2684355951,2684355946,2684355882,
2684356329,2684355945,2684355945,2684355945,2684355945,2684355881,2684356009,2684355948,2684355948,2684355946,2684355882,2684356010,2684355946,2684355882,2684356010,2684355946,2684355951,2684355887,2684355882,2684355882,2684356015,2684355951,2684355887,2684355945,2684355881,
2684356329,2684355945,2684355946,2684355946,2684355946,2684355882,2684356010,2684355948,2684356009,2684355945,2684355881,2684355948,2684355945,2684356393,2684356329,2684355945,2684355954,2684355887,2684355948,2684355882,2684356015,2684356015,2684356015,2684355946,2684355882,
2684355887,2684355951,2684355887,2684356009,2684355945,2684355881,2684356009,2684355945,2684356009,2684355945,2684355881,2684355948,2684355945,2684356393,2684356329,2684355945,2684355882,2684355954,2684355882,2684355882,2684356016,2684356016,2684356016,2684355945,2684355881,
2684355882,2684355945,2684356015,2684355951,2684355946,2684355882,2684356010,2684355946,2684355948,2684355882,2684355882,2684355948,2684355948,2684355948,2684355948,2684355882,2684355882,2684355882,2684355948,2684355948,2684355946,2684355882,2684356010,2684355946,2684355882,
2684355882,2684355945,2684356015,2684355951,2684355945,2684355881,2684356009,2684355945,2684355882,2684355948,2684355948,2684355954,2684355887,2684355951,2684355887,2684356009,2684355945,2684355881,2684356009,2684355945,2684355945,2684355881,2684355948,2684355954,2684355887,
2684355948,2684355945,2684355954,2684355951,2684355946,2684355882,2684356010,2684355946,2684355945,2684355945,2684355882,2684355882,2684355882,2684355945,2684356015,2684355951,2684355946,2684355882,2684356010,2684355946,2684355945,2684355945,2684355951,2684355887,2684356009,
2684355882,2684356015,2684355951,2684355887,2684355945,2684355881,2684356009,2684355945,2684355946,2684355946,2684355945,2684355945,2684355882,2684355945,2684356015,2684355951,2684355945,2684355881,2684356009,2684355945,2684355946,2684355946,2684355945,2684355945,2684356009,
2684355882,2684356015,2684356015,2684356015,2684355946,2684355882,2684356010,2684355946,2684355945,2684355945,2684355946,2684355946,2684355945,2684355945,2684355954,2684355951,2684355946,2684355882,2684356010,2684355946,2684355945,2684355945,2684355946,2684355946,2684355945,
2684355882,2684356016,2684356016,2684356016,2684355945,2684355881,2684356009,2684355945,2684355946,2684355946,2684355945,2684355945,2684355946,2684356015,2684355951,2684355887,2684355945,2684355881,2684356009,2684355945,2684355946,2684355946,2684355945,2684355945,2684355946,
2684355948,2684355946,2684355882,2684356010,2684355954,2684355887,2684355951,2684355887,2684356009,2684355945,2684355881,2684356009,2684355945,2684356015,2684356015,2684356015,2684355954,2684355887,2684355951,2684355887,2684356009,2684355945,2684355881,2684356009,2684355945,
2684356009,2684355945,2684355881,2684355948,2684355882,2684355882,2684355945,2684356015,2684355951,2684355946,2684355882,2684356010,2684355946,2684356016,2684356016,2684356016,2684355882,2684355882,2684355945,2684356015,2684355951,2684355946,2684355882,2684356010,2684355946,
2684356393,2684356329,2684355945,2684355882,2684355882,2684355882,2684355945,2684356015,2684355951,2684355945,2684355881,2684356009,2684355945,2684355946,2684355882,2684356010,2684355882,2684355882,2684355945,2684356015,2684355951,2684355945,2684355881,2684356009,2684355945,
2684356016,2684356016,2684355945,2684355881,2684355948,2684355948,2684355945,2684355954,2684355951,2684355946,2684355882,2684356010,2684355946,2684355945,2684355881,2684355948,2684355948,2684355948,2684355945,2684355954,2684355951,2684355946,2684355882,2684356010,2684355946,
2684355882,2684356010,2684355946,2684355882,2684355882,2684355882,2684356015,2684355951,2684355887,2684355945,2684355881,2684356009,2684355945,2684356009,2684355945,2684355881,2684355882,2684355882,2684356015,2684355951,2684355887,2684355945,2684355881,2684356009,2684355945,
2684355881,2684355948,2684355945,2684356393,2684355948,2684355882,2684356015,2684356015,2684356015,2684355946,2684355882,2684356010,2684355946,2684355954,2684355948,2684356009,2684355948,2684355882,2684356015,2684356015,2684356015,2684355946,2684355882,2684356010,2684355946,
2684355946,2684355946,2684355946,2684356010,2684355946,2684355946,2684355945,2684355951,2684355887,2684356009,2684355945,2684355945,2684356015,2684355951,2684355945,2684355881,2684355948,2684355882,2684356015,2684356015,2684356015,2684355946,2684355882,2684356010,2684355946,
2684355945,2684355945,2684355945,2684356009,2684355945,2684355945,2684355946,2684355951,2684355887,2684356009,2684355945,2684355945,2684355954,2684355951,2684355946,2684355882,2684355882,2684355882,2684356016,2684356016,2684356016,2684355945,2684355881,2684356009,2684355945,
2684355946,2684355946,2684355946,2684356010,2684355946,2684355946,2684355945,2684355887,2684355951,2684355887,2684356009,2684356015,2684355951,2684355887,2684355945,2684355881,2684355948,2684355948,2684355946,2684355882,2684356010,2684355946,2684355882,2684356010,2684355946,
2684355951,2684355887,2684356009,2684355945,2684355881,2684356009,2684355945,2684355882,2684355945,2684356015,2684355951,2684356015,2684356015,2684356015,2684355946,2684355882,2684355948,2684356009,2684355945,2684355881,2684355948,2684355945,2684356393,2684356329,2684355945,
2684355945,2684356015,2684355951,2684355946,2684355882,2684356010,2684355946,2684355882,2684355945,2684356015,2684355951,2684356016,2684356016,2684356016,2684355945,2684355881,2684356009,2684355945,2684355945,2684355945,2684355945,2684355881,2684356009,2684355948,2684355882,
2684355945,2684356015,2684355951,2684355945,2684355881,2684356009,2684355945,2684355948,2684355945,2684355954,2684355951,2684355946,2684355882,2684356010,2684355946,2684355882,2684356010,2684355946,2684355946,2684355946,2684355946,2684355882,2684356010,2684355882,2684355882,
2684355945,2684355954,2684355951,2684355946,2684355882,2684356010,2684355946,2684355954,2684355887,2684355951,2684355887,2684355945,2684355881,2684355948,2684355945,2684356393,2684356329,2684355945,2684355945,2684355945,2684355945,2684355881,2684356009,2684355948,2684355948,
2684356015,2684355951,2684355887,2684355945,2684355881,2684356009,2684355945,2684355882,2684355882,2684355945,2684356015,2684355945,2684355881,2684355948,2684355945,2684356393,2684356329,2684355945,2684355946,2684355946,2684355946,2684355882,2684356010,2684355948,2684356009,
2684356015,2684356015,2684356015,2684355946,2684355882,2684356010,2684355946,2684355882,2684355882,2684355945,2684356015,2684355954,2684355887,2684355951,2684355887,2684355954,2684355887,2684355951,2684355887,2684356009,2684355945,2684355881,2684356009,2684355945,2684356009,
2684356016,2684356016,2684356016,2684355945,2684355881,2684356009,2684355945,2684355948,2684355948,2684355945,2684355954,2684355882,2684355882,2684355945,2684356015,2684355882,2684355882,2684355945,2684356015,2684355951,2684355946,2684355882,2684356010,2684355946,2684355948,
2684355946,2684355882,2684356010,2684355946,2684355882,2684356010,2684355946,2684355882,2684355882,2684356015,2684355951,2684355882,2684355882,2684355945,2684356015,2684355882,2684355882,2684355945,2684356015,2684355951,2684355945,2684355881,2684356009,2684355945,2684355882,
2684355945,2684355881,2684355948,2684355945,2684356393,2684356329,2684355945,2684355948,2684355882,2684356015,2684356015,2684355948,2684355948,2684355945,2684355954,2684355948,2684355948,2684355945,2684355954,2684355951,2684355946,2684355882,2684356010,2684355946,2684355945,
2684355945,2684356329,2684355945,2684355945,2684355945,2684355945,2684355951,2684355882,2684355882,2684356016,2684356016,2684355882,2684355882,2684356015,2684355951,2684355882,2684355882,2684356015,2684355951,2684355887,2684355945,2684355881,2684356009,2684355945,2684355946,
2684355882,2684356010,2684355946,2684356010,2684355946,2684356015,2684356015,2684355948,2684355948,2684355946,2684355882,2684355948,2684355882,2684356015,2684356015,2684355948,2684355882,2684356015,2684356015,2684356015,2684355946,2684355882,2684356010,2684355946,2684355945,
2684356393,2684356329,2684355945,2684356009,2684355945,2684356016,2684356016,2684355948,2684356009,2684355945,2684355881,2684355882,2684355882,2684356016,2684356016,2684355882,2684355882,2684356016,2684356016,2684356016,2684355945,2684355881,2684356009,2684355945,2684355946,
2684355945,2684355946,2684355882,2684356010,2684355946,2684355946,2684355882,2684356010,2684355946,2684355882,2684356010,2684355948,2684355948,2684355946,2684355882,2684355948,2684355948,2684355946,2684355882,2684356010,2684355954,2684355887,2684355951,2684355887,2684356009,
2684355946,2684355945,2684355881,2684356009,2684355945,2684355945,2684355881,2684355948,2684355945,2684356393,2684356329,2684355948,2684356009,2684355945,2684355881,2684355948,2684356009,2684355945,2684355881,2684355948,2684355882,2684355882,2684355945,2684356015,2684355951,
2684355945,2684355946,2684355882,2684356010,2684355946,2684355945,2684355881,2684355948,2684355945,2684356393,2684356329,2684356009,2684355945,2684355881,2684355948,2684355945,2684356393,2684356329,2684355945,2684355882,2684355882,2684355882,2684355945,2684356015,2684355951,
2684355887,2684355951,2684355887,2684356009,2684355945,2684355881,2684356009,2684355945,2684355951,2684355887,2684356009,2684355882,2684356016,2684355882,2684355882,2684356016,2684356016,2684356016,2684355945,2684355881,2684355948,2684355948,2684355945,2684355954,2684355951,
2684355882,2684355945,2684356015,2684355951,2684355946,2684355882,2684356010,2684355946,2684355945,2684356015,2684355951,2684355948,2684355946,2684355948,2684355948,2684355946,2684355882,2684356010,2684355946,2684355882,2684355882,2684355882,2684356015,2684355951,2684355887,
2684355882,2684355945,2684356015,2684355951,2684355945,2684355881,2684356009,2684355945,2684355945,2684356015,2684355951,2684356009,2684355945,2684355948,2684356009,2684355945,2684355881,2684355948,2684355945,2684356393,2684355948,2684355882,2684356015,2684356015,2684356015,
2684355948,2684355945,2684355954,2684355951,2684355946,2684355882,2684356010,2684355946,2684355945,2684355954,2684355951,2684355946,2684355882,2684356010,2684355946,2684355946,2684355946,2684356016,2684356016,2684356016,2684355945,2684355881,2684356009,2684355945,2684355946,
2684355882,2684356015,2684355951,2684355887,2684355945,2684355881,2684356009,2684355945,2684356015,2684355951,2684355887,2684355945,2684355881,2684356009,2684355945,2684355945,2684355945,2684355946,2684355882,2684356010,2684355946,2684355882,2684356010,2684355946,2684355945,
2684355882,2684356015,2684356015,2684356015,2684355946,2684355882,2684356010,2684355946,2684356015,2684356015,2684356015,2684355946,2684355882,2684356010,2684355946,2684355946,2684355946,2684355945,2684355881,2684355948,2684355954,2684355954,2684355887,2684355951,2684355887
</data>
 </layer>
 <layer id="3" name="Wall" width="25" height="110">
  <data encoding="csv">
2684355075,2684355342,2684355342,2684355342,2684355342,2684355342,2684355342,2684355342,2684355342,2684355342,2684355342,2684355342,2684355342,2684355342,2684355342,2684355342,2684355342,2684355342,2684355342,2684355342,2684355342,2684355342,2684355342,2684355342,536871427,
1073742606,0,0,0,0,0,0,639,640,641,642,643,644,645,646,647,648,649,650,0,0,0,0,0,3221226254,
1073742606,0,0,0,0,0,0,703,704,705,706,707,708,709,710,711,712,713,714,0,0,0,0,0,3221226254,
1073742606,0,0,0,0,0,0,767,768,769,770,771,772,773,774,775,776,777,778,0,0,0,0,0,3221226254,
1073742606,0,0,0,0,0,0,831,832,833,834,562,563,564,565,839,840,841,842,0,0,0,0,0,3221226254,
1073742606,0,0,0,0,0,920,895,902,903,904,626,0,0,629,902,903,904,906,920,0,0,0,0,3221226254,
1073742606,0,0,0,0,0,982,959,1554,1359,1360,690,0,0,693,1359,1360,1554,970,982,0,0,0,0,3221226254,
1073742606,0,0,0,0,0,1046,1023,1618,1423,1424,754,0,0,757,1423,1424,1618,1034,1046,0,0,0,0,3221226254,
1073742606,0,0,0,0,0,1110,1087,1682,1676,1677,818,0,0,821,1676,1677,1682,1098,1110,0,0,0,0,3221226254,
1073742606,0,0,0,0,0,1174,1151,1152,1153,1154,1155,0,0,1158,1159,1160,1161,1162,0,0,0,0,0,3221226254,
1073742606,0,992,993,0,0,0,0,0,0,0,0,0,0,0,0,0,0,0,0,0,992,993,0,3221226254,
1073742606,0,1056,1057,0,0,0,0,0,0,0,0,0,0,0,0,0,0,0,0,0,1056,1057,0,3221226254,
1073742606,0,1120,1121,0,0,0,0,0,0,0,0,0,0,0,0,0,0,0,0,0,1120,1121,0,3221226254,
1073742606,0,1184,1185,0,0,0,0,0,0,532,533,534,535,535,536,0,0,0,0,0,1184,1185,0,3221226254,
1073742606,0,0,0,0,0,603,604,605,606,596,605,605,605,605,600,603,604,605,606,0,0,0,0,3221226254,
1073742606,0,0,0,0,0,667,668,669,670,660,669,669,669,669,664,667,668,669,670,0,0,0,0,3221226254,
1073742606,0,0,0,0,0,731,732,733,734,724,733,733,733,733,728,731,732,733,734,0,0,0,0,3221226254,
1073742606,0,0,0,0,0,795,796,797,798,788,797,797,797,797,792,795,796,797,798,0,0,0,0,3221226254,
1073742606,0,0,0,0,0,859,860,861,862,852,0,0,0,0,856,859,860,861,862,0,0,0,0,3221226254,
1073742606,0,0,0,0,0,0,0,0,0,0,0,0,0,0,0,0,0,0,0,0,0,0,0,3221226254,
1073742606,0,0,0,0,0,0,0,0,0,0,0,0,0,0,0,0,0,0,0,0,0,0,0,3221226254,
1073742606,0,0,0,0,0,0,0,0,0,0,0,0,0,0,0,0,0,0,0,0,0,0,0,3221226254,
1073742606,0,0,0,0,0,0,0,0,0,0,0,0,0,0,0,0,0,0,0,0,0,0,0,3221226254,
1073742606,3221226369,3221226369,3221226369,3221226369,3221226369,3221226369,3221226369,3221225983,0,0,0,0,0,0,0,1073742335,1073742721,3221226369,3221226369,3221226369,3221226369,3221226369,3221226369,3221226254,
2147484418,2147484418,2147484418,2147484418,2147484418,2147484418,2147484418,2147484418,2147484306,0,0,0,0,0,0,0,658,770,2147484418,2147484418,2147484418,2147484418,2147484418,2147484418,2147484418,
2147484418,2147484418,2147484418,2147484418,2147484418,2147484418,2147484418,2147484418,2147484370,0,2147484709,0,0,0,2147484709,0,722,770,2147484418,2147484418,2147484418,2147484418,2147484418,2147484418,2147484418,
2147484418,2147484418,2147484418,2147484418,2147484418,2147484418,2147484418,2147484418,2147484166,2147484295,2147484242,0,0,0,2147484238,647,2147484163,2147484418,2147484418,2147484418,2147484418,2147484418,2147484418,2147484418,2147484418,
2147484418,2147484418,2147484418,2147484418,2147484418,2147484418,2147484418,2147484418,2147484418,2147484418,2147484306,0,0,0,2147484302,2147484418,2147484418,2147484418,2147484418,2147484418,2147484418,2147484418,2147484418,2147484418,2147484418,
2147484418,2147484418,2147484418,2147484418,2147484418,2147484418,2147484418,2147484418,2147484418,2147484418,2147484370,0,0,0,2147484366,2147484418,2147484418,2147484418,2147484418,2147484418,2147484418,2147484418,2147484418,2147484418,2147484418,
2147484418,2147484418,2147484418,2147484418,2147484418,2147484418,2147484418,2147484418,2147484418,2147484418,2147484434,0,0,0,2147484430,2147484418,2147484418,2147484418,2147484418,2147484418,2147484418,2147484418,2147484418,2147484418,2147484418,
2147484418,2147484418,2147484418,2147484418,2147484418,2147484418,2147484418,2147484418,2147484418,2147484418,2147484498,0,0,0,850,2147484418,2147484418,2147484418,2147484418,2147484418,2147484418,2147484418,2147484418,2147484418,2147484418,
2147484418,2147484418,2147484418,2147484418,2147484418,2147484418,2147484418,2147484418,2147484552,896,2147484248,0,0,0,2147484244,2147484546,2147484552,2147484418,2147484418,2147484418,2147484418,2147484418,2147484418,2147484418,2147484418,
2147484418,2147484418,2147484418,2147484418,2147484418,2147484418,2147484418,2147484418,959,960,2147484312,0,0,0,2147484308,2147484608,2147484607,2147484418,2147484418,2147484418,2147484418,2147484418,2147484418,2147484418,2147484418,
2147484418,2147484418,2147484418,2147484418,2147484418,2147484418,2147484418,2147484418,1023,1024,2147484376,0,0,0,2147484372,2147484672,2147484671,2147484418,2147484418,2147484418,2147484418,2147484418,2147484418,2147484418,2147484418,
1073742606,2147484545,2147484545,2147484545,2147484545,2147484545,2147484545,2147484545,1087,1088,2147484440,0,0,0,2147484436,2147484736,2147484735,2147484545,2147484545,2147484545,2147484545,2147484545,2147484545,2147484545,3221226254,
1073742606,2684354660,2684354644,2684354628,0,0,0,0,1151,1152,2147484504,0,0,0,2147484500,2147484800,2147484799,0,0,0,0,2684354660,2684354644,2684354628,3221226254,
1073742606,2684354661,2684354645,2684354629,0,0,0,0,0,0,0,0,0,0,0,0,0,0,0,0,0,2684354661,2684354645,2684354629,3221226254,
1073742606,0,0,0,0,0,0,0,0,0,0,0,0,0,0,0,0,0,0,0,0,0,0,0,3221226254,
1073742606,0,0,0,0,0,0,0,0,0,0,0,0,0,0,0,0,0,0,0,0,0,0,0,3221226254,
1073742606,0,0,0,0,0,0,0,0,0,0,0,0,0,0,0,0,0,0,0,0,0,0,0,3221226254,
1073742606,0,0,0,0,0,0,1073742717,3221226365,0,0,0,0,0,0,1073742717,3221226365,0,0,0,0,0,0,0,3221226254,
1073742606,0,0,0,0,0,0,2147484430,782,0,0,0,0,0,0,2147484430,782,0,0,0,0,0,0,0,3221226254,
1073742606,0,0,0,0,0,0,2147484430,782,0,0,0,0,0,0,2147484430,782,0,0,0,0,0,0,0,3221226254,
1073742606,0,0,0,0,0,0,2147484430,782,0,0,0,0,0,0,2147484430,782,0,0,0,0,0,0,0,3221226254,
1073742606,0,0,0,0,0,0,2147484430,782,0,0,0,0,0,0,2147484430,782,0,0,0,0,0,0,0,3221226254,
1073742606,0,0,0,0,0,0,2147484430,782,0,0,0,0,0,0,2147484430,782,0,0,0,0,0,0,0,3221226254,
1073742606,0,0,0,0,0,0,2147484430,782,0,0,992,993,0,0,2147484430,782,0,0,0,0,0,0,0,3221226254,
1073742606,0,0,0,0,0,0,2147484430,782,0,0,1056,1057,0,0,2147484430,782,0,0,0,0,0,0,0,3221226254,
1073742606,0,0,0,0,0,0,2147484430,782,0,0,1120,1121,0,0,2147484430,782,0,0,0,0,0,0,0,3221226254,
1073742606,0,0,0,0,0,0,2147484430,782,0,0,1184,1185,0,0,2147484430,782,0,0,0,0,0,0,0,3221226254,
1073742606,0,0,0,0,0,0,2147484430,782,0,0,0,0,0,0,2147484430,782,0,0,0,0,0,0,0,3221226254,
1073742606,0,0,0,0,0,0,2147484430,782,0,0,0,0,0,0,2147484430,782,0,0,0,0,0,0,0,3221226254,
1073742606,0,0,0,0,0,0,3221226254,1073742606,0,0,0,0,0,0,3221226254,1073742606,0,0,0,0,0,0,0,3221226254,
1073742606,0,0,0,0,0,0,3221226254,1073742606,0,0,0,0,0,0,3221226254,1073742606,0,0,0,0,0,0,0,3221226254,
1073742606,0,0,0,0,0,0,3221226254,1073742606,0,0,0,0,0,0,3221226254,1073742606,0,0,0,0,0,0,0,3221226254,
1073742606,0,0,0,0,0,0,893,2147484541,0,0,0,0,0,0,893,2147484541,0,0,0,0,0,0,0,3221226254,
1073742606,0,0,0,0,0,0,0,0,0,0,0,0,0,0,0,0,0,0,0,0,0,0,0,3221226254,
1073742606,0,0,0,0,0,0,0,0,0,0,0,0,0,0,0,0,0,0,0,0,0,0,0,3221226254,
1073742606,2684354660,2684354644,2684354628,0,0,0,0,0,0,0,0,0,0,0,0,0,0,0,0,0,2684354660,2684354644,2684354628,3221226254,
1073742606,2684354661,2684354645,2684354629,0,0,0,0,0,0,0,0,0,0,0,0,0,0,0,0,0,2684354661,2684354645,2684354629,3221226254,
1073742606,3221226369,3221226369,3221226369,3221226369,3221226369,3221226369,3221226369,1073742975,1073742976,3221226328,0,0,0,3221226324,3221226624,3221226623,1073742546,3221226369,3221226369,3221226369,3221226369,3221226369,3221226369,3221226254,
3221226242,3221226242,3221226242,3221226242,3221226242,3221226242,3221226242,3221226194,1073742911,1073742912,3221226264,0,0,0,3221226260,3221226560,3221226559,1073742546,3221226242,3221226242,3221226242,3221226242,3221226242,3221226242,3221226242,
3221226242,3221226242,3221226242,3221226242,3221226242,3221226242,3221226242,3221226194,1073742847,1073742848,3221226200,0,0,0,3221226196,3221226496,3221226495,1073742546,3221226242,3221226242,3221226242,3221226242,3221226242,3221226242,3221226242,
3221226242,3221226242,3221226242,3221226242,3221226242,3221226242,3221226242,3221226194,1073742783,1073742784,3221226136,0,0,0,3221226132,3221226432,3221226431,1073742546,3221226242,3221226242,3221226242,3221226242,3221226242,3221226242,3221226242,
3221226242,3221226242,3221226242,3221226242,3221226242,3221226242,3221226242,1073742345,3221226376,1073742720,3221226072,0,0,0,3221226068,3221226370,3221226376,3221225993,3221226242,3221226242,3221226242,3221226242,3221226242,3221226242,3221226242,
3221226242,3221226242,3221226242,3221226242,3221226242,3221226242,3221226242,3221226242,3221226242,3221226242,3221226322,0,0,0,1073742674,3221226242,3221226242,3221226242,3221226242,3221226242,3221226242,3221226242,3221226242,3221226242,3221226242,
3221226242,3221226242,3221226242,3221226242,3221226242,3221226242,3221226242,3221226242,3221226242,3221226242,3221226258,0,0,0,3221226254,3221226242,3221226242,3221226242,3221226242,3221226242,3221226242,3221226242,3221226242,3221226242,3221226242,
3221226242,3221226242,3221226242,3221226242,3221226242,3221226242,3221226242,3221226242,3221226242,3221226242,3221226194,0,0,0,3221226190,3221226242,3221226242,3221226242,3221226242,3221226242,3221226242,3221226242,3221226242,3221226242,3221226242,
3221226242,3221226242,3221226242,3221226242,3221226242,3221226242,3221226242,3221226242,3221226242,3221226242,3221226130,0,0,0,3221226126,3221226242,3221226242,3221226242,3221226242,3221226242,3221226242,3221226242,3221226242,3221226242,3221226242,
3221226242,3221226242,3221226242,3221226242,3221226242,3221226242,3221226242,3221226242,3221225990,3221226119,3221226066,0,0,0,3221226062,1073742471,3221225987,3221226242,3221226242,3221226242,3221226242,3221226242,3221226242,3221226242,3221226242,
3221226242,3221226242,3221226242,3221226242,3221226242,3221226242,3221226242,3221226242,3221226194,0,3221226533,0,0,0,3221226533,0,1073742546,3221226242,3221226242,3221226242,3221226242,3221226242,3221226242,3221226242,3221226242,
3221226242,3221226242,3221226242,3221226242,3221226242,3221226242,3221226242,3221226242,3221226130,0,0,0,0,0,0,0,1073742482,3221226242,3221226242,3221226242,3221226242,3221226242,3221226242,3221226242,3221226242,
3221226242,3221226242,3221226242,3221226242,3221226242,3221226242,3221226242,3221226242,3221226194,0,0,0,0,0,0,0,1073742546,3221226242,3221226242,3221226242,3221226242,3221226242,3221226242,3221226242,3221226242,
3221226242,3221226242,3221226242,3221226242,3221226242,3221226242,3221226242,3221226242,3221226130,0,0,0,0,0,0,0,1073742482,3221226242,3221226242,3221226242,3221226242,3221226242,3221226242,3221226242,3221226242,
1073742606,2147484545,2147484545,2147484545,2147484545,2147484545,2147484545,2147484545,2147484159,0,0,0,0,0,0,0,2147484170,2147484545,2147484545,2147484545,2147484545,2147484545,2147484545,2147484545,2147484430,
1073742606,536871073,536871089,0,0,0,0,0,0,0,0,0,0,0,0,0,0,0,0,0,0,0,2684354737,2684354721,2147484430,
1073742606,536871074,536871090,0,0,0,0,0,0,0,0,0,0,0,0,0,0,0,0,0,0,0,2684354738,2684354722,2147484430,
1073742606,536871075,536871091,0,0,0,0,0,0,0,0,0,0,0,0,0,0,0,0,0,0,0,2684354739,2684354723,2147484430,
782,0,0,0,0,0,0,0,0,0,0,0,0,0,0,0,0,0,0,0,0,0,0,0,2147484430,
782,0,0,0,0,0,0,0,0,1073742717,3221226369,3221226369,3221226369,3221226369,3221226369,3221226365,0,0,0,0,0,0,0,0,2147484430,
782,0,0,0,0,0,0,0,0,2147484430,3221226242,3221226242,3221226242,3221226242,3221226242,782,0,0,0,0,0,0,0,0,2147484430,
782,0,0,0,0,0,0,0,0,2147484430,1073742717,1073742721,1073742721,1073742721,3221226365,782,0,0,0,0,0,0,0,0,2147484430,
782,0,0,0,0,0,0,0,0,2147484430,2147484430,1073742594,1073742594,1073742594,782,782,0,0,0,0,0,0,0,0,2147484430,
782,0,0,0,0,0,0,0,0,2147484430,3221226254,770,770,770,1073742606,782,0,0,0,0,0,0,0,0,2147484430,
782,0,0,0,0,0,0,0,0,3221226254,893,897,897,897,2147484541,1073742606,0,0,0,0,0,0,0,0,2147484430,
782,0,0,0,0,0,0,0,0,3221226254,3221226242,3221226242,3221226242,3221226242,3221226242,1073742606,0,0,0,0,0,0,0,0,2147484430,
782,0,0,0,0,0,0,0,0,893,2147484545,2147484545,2147484545,2147484545,2147484545,2147484541,0,0,0,0,0,0,0,0,2147484430,
782,0,0,0,0,0,0,0,0,0,0,0,0,0,0,0,0,0,0,0,0,0,0,0,2147484430,
782,0,0,0,0,0,0,1073742717,3221226365,0,0,0,0,0,0,0,1073742717,3221226365,0,0,0,0,0,0,2147484430,
782,0,0,0,0,0,0,2147484430,782,0,0,0,0,0,0,0,2147484430,782,0,0,0,0,0,0,2147484430,
782,0,0,0,0,0,0,2147484430,782,0,0,0,0,0,0,0,2147484430,782,0,0,0,0,0,0,2147484430,
782,0,0,0,0,0,0,2147484430,782,0,0,0,0,0,0,0,2147484430,782,0,0,0,0,0,0,2147484430,
782,0,0,0,0,0,0,2147484430,782,0,0,0,0,0,0,0,2147484430,782,0,0,0,0,0,0,2147484430,
782,0,0,992,993,0,0,2147484430,782,0,0,0,0,0,0,0,2147484430,782,0,0,992,993,0,0,2147484430,
782,0,0,1056,1057,0,0,2147484430,782,0,0,0,0,0,0,0,2147484430,782,0,0,1056,1057,0,0,2147484430,
782,0,0,1120,1121,0,0,2147484430,3758096899,1610613518,1610613518,1610613518,1610613518,3758097166,3758097166,3758097166,1610613251,782,0,0,1120,1121,0,0,2147484430,
782,0,0,1184,1185,0,0,2147484430,2684355075,536871694,536871694,536871694,536871694,2684355342,2684355342,2684355342,536871427,782,0,0,1184,1185,0,0,2147484430,
782,0,0,0,0,0,0,2147484430,782,0,0,0,0,0,0,0,2147484430,782,0,0,0,0,0,0,2147484430,
782,0,0,0,0,0,0,2147484430,782,0,0,0,0,0,0,0,2147484430,782,0,0,0,0,0,0,2147484430,
782,0,0,0,0,0,0,2147484430,782,0,0,0,0,0,0,0,2147484430,782,0,0,0,0,0,0,2147484430,
782,0,0,0,0,0,0,3221226254,1073742606,0,0,0,0,0,0,0,3221226254,1073742606,0,0,0,0,0,0,2147484430,
782,0,0,0,0,0,0,3221226254,1073742606,0,0,0,0,0,0,0,3221226254,1073742606,0,0,0,0,0,0,2147484430,
782,0,0,0,0,0,0,3221226254,1073742606,0,0,0,0,0,0,0,3221226254,1073742606,0,0,0,0,0,0,2147484430,
782,0,0,0,0,0,0,893,2147484541,0,0,0,0,0,0,0,893,2147484541,0,0,0,0,0,0,2147484430,
782,0,0,0,0,0,0,0,0,0,1073742696,1073742697,1073742698,0,0,0,0,0,0,0,0,0,0,0,2147484430,
782,0,0,0,0,0,0,0,0,0,1073742632,0,0,0,0,0,0,0,0,0,0,0,0,0,2147484430,
782,0,0,0,0,0,0,0,0,0,1073742568,0,0,0,0,0,0,0,0,0,0,0,0,0,2147484430,
782,161,162,163,0,0,0,0,0,0,1073742504,1073742505,1073742506,0,0,0,0,0,0,0,0,161,162,163,2147484430,
782,177,178,179,0,0,0,0,0,0,0,0,0,0,0,0,0,0,0,0,0,177,178,179,2147484430,
3758096899,3758097166,3758097166,3758097166,3758097166,3758097166,3758097166,3758097166,3758097166,3758097166,3758097166,3758097166,3758097166,3758097166,3758097166,3758097166,3758097166,3758097166,3758097166,3758097166,3758097166,3758097166,3758097166,3758097166,1610613251
</data>
 </layer>
 <layer id="4" name="EntryPoint" width="25" height="110">
  <data encoding="csv">
0,0,0,0,0,0,0,0,0,0,0,0,0,0,0,0,0,0,0,0,0,0,0,0,0,
0,0,0,0,0,0,0,0,0,0,0,0,0,0,0,0,0,0,0,0,0,0,0,0,0,
0,0,0,0,0,0,0,0,0,0,0,0,0,0,0,0,0,0,0,0,0,0,0,0,0,
0,0,0,0,0,0,0,0,0,0,0,0,0,0,0,0,0,0,0,0,0,0,0,0,0,
0,0,0,0,0,0,0,0,0,0,0,0,0,0,0,0,0,0,0,0,0,0,0,0,0,
0,0,0,0,0,0,0,0,0,0,0,0,0,0,0,0,0,0,0,0,0,0,0,0,0,
0,0,0,0,0,0,0,0,0,0,0,0,0,0,0,0,0,0,0,0,0,0,0,0,0,
0,0,0,0,0,0,0,0,0,0,0,0,0,0,0,0,0,0,0,0,0,0,0,0,0,
0,0,0,0,0,0,0,0,0,0,0,0,0,0,0,0,0,0,0,0,0,0,0,0,0,
0,0,0,0,0,0,0,0,0,0,0,0,0,0,0,0,0,0,0,0,0,0,0,0,0,
0,0,0,0,0,0,0,0,0,0,0,0,0,0,0,0,0,0,0,0,0,0,0,0,0,
0,0,0,0,0,0,0,0,0,0,0,0,0,0,0,0,0,0,0,0,0,0,0,0,0,
0,0,0,0,0,0,0,0,0,0,0,0,0,0,0,0,0,0,0,0,0,0,0,0,0,
0,0,0,0,0,0,0,0,0,0,0,0,0,0,0,0,0,0,0,0,0,0,0,0,0,
0,0,0,0,0,0,0,0,0,0,0,0,0,0,0,0,0,0,0,0,0,0,0,0,0,
0,0,0,0,0,0,0,0,0,0,0,0,0,0,0,0,0,0,0,0,0,0,0,0,0,
0,0,0,0,0,0,0,0,0,0,0,0,0,0,0,0,0,0,0,0,0,0,0,0,0,
0,0,0,0,0,0,0,0,0,0,0,0,0,0,0,0,0,0,0,0,0,0,0,0,0,
0,0,0,0,0,0,0,0,0,0,0,0,0,0,0,0,0,0,0,0,0,0,0,0,0,
0,0,0,0,0,0,0,0,0,0,0,0,0,0,0,0,0,0,0,0,0,0,0,0,0,
0,0,0,0,0,0,0,0,0,0,0,0,0,0,0,0,0,0,0,0,0,0,0,0,0,
0,0,0,0,0,0,0,0,0,0,0,0,0,0,0,0,0,0,0,0,0,0,0,0,0,
0,0,0,0,0,0,0,0,0,0,0,0,0,0,0,0,0,0,0,0,0,0,0,0,0,
0,0,0,0,0,0,0,0,0,0,0,0,0,0,0,0,0,0,0,0,0,0,0,0,0,
0,0,0,0,0,0,0,0,0,0,0,0,0,0,0,0,0,0,0,0,0,0,0,0,0,
0,0,0,0,0,0,0,0,0,0,0,0,0,0,0,0,0,0,0,0,0,0,0,0,0,
0,0,0,0,0,0,0,0,0,0,0,0,0,0,0,0,0,0,0,0,0,0,0,0,0,
0,0,0,0,0,0,0,0,0,0,0,0,0,0,0,0,0,0,0,0,0,0,0,0,0,
0,0,0,0,0,0,0,0,0,0,0,0,0,0,0,0,0,0,0,0,0,0,0,0,0,
0,0,0,0,0,0,0,0,0,0,0,0,0,0,0,0,0,0,0,0,0,0,0,0,0,
0,0,0,0,0,0,0,0,0,0,0,0,0,0,0,0,0,0,0,0,0,0,0,0,0,
0,0,0,0,0,0,0,0,0,0,0,0,0,0,0,0,0,0,0,0,0,0,0,0,0,
0,0,0,0,0,0,0,0,0,0,0,0,0,0,0,0,0,0,0,0,0,0,0,0,0,
0,0,0,0,0,0,0,0,0,0,0,0,0,0,0,0,0,0,0,0,0,0,0,0,0,
0,0,0,0,0,0,0,0,0,0,0,0,0,0,0,0,0,0,0,0,0,0,0,0,0,
0,0,0,0,0,0,0,0,0,0,0,0,0,0,0,0,0,0,0,0,0,0,0,0,0,
0,0,0,0,0,0,0,0,0,0,0,0,0,0,0,0,0,0,0,0,0,0,0,0,0,
0,0,0,0,0,0,0,0,0,0,0,0,0,0,0,0,0,0,0,0,0,0,0,0,0,
0,0,0,0,0,0,0,0,0,0,0,0,0,0,0,0,0,0,0,0,0,0,0,0,0,
0,0,0,0,0,0,0,0,0,0,0,0,0,0,0,0,0,0,0,0,0,0,0,0,0,
0,0,0,0,0,0,0,0,0,0,0,0,0,0,0,0,0,0,0,0,0,0,0,0,0,
0,0,0,0,0,0,0,0,0,0,0,0,0,0,0,0,0,0,0,0,0,0,0,0,0,
0,0,0,0,0,0,0,0,0,0,0,0,0,0,0,0,0,0,0,0,0,0,0,0,0,
0,0,0,0,0,0,0,0,0,0,0,0,0,0,0,0,0,0,0,0,0,0,0,0,0,
0,0,0,0,0,0,0,0,0,0,0,0,0,0,0,0,0,0,0,0,0,0,0,0,0,
0,0,0,0,0,0,0,0,0,0,0,0,0,0,0,0,0,0,0,0,0,0,0,0,0,
0,0,0,0,0,0,0,0,0,0,0,0,0,0,0,0,0,0,0,0,0,0,0,0,0,
0,0,0,0,0,0,0,0,0,0,0,0,0,0,0,0,0,0,0,0,0,0,0,0,0,
0,0,0,0,0,0,0,0,0,0,0,0,0,0,0,0,0,0,0,0,0,0,0,0,0,
0,0,0,0,0,0,0,0,0,0,0,0,0,0,0,0,0,0,0,0,0,0,0,0,0,
0,0,0,0,0,0,0,0,0,0,0,0,0,0,0,0,0,0,0,0,0,0,0,0,0,
0,0,0,0,0,0,0,0,0,0,0,0,0,0,0,0,0,0,0,0,0,0,0,0,0,
0,0,0,0,0,0,0,0,0,0,0,0,0,0,0,0,0,0,0,0,0,0,0,0,0,
0,0,0,0,0,0,0,0,0,0,0,0,0,0,0,0,0,0,0,0,0,0,0,0,0,
0,0,0,0,0,0,0,0,0,0,0,0,0,0,0,0,0,0,0,0,0,0,0,0,0,
0,0,0,0,0,0,0,0,0,0,0,0,0,0,0,0,0,0,0,0,0,0,0,0,0,
0,0,0,0,0,0,0,0,0,0,0,0,0,0,0,0,0,0,0,0,0,0,0,0,0,
0,0,0,0,0,0,0,0,0,0,0,0,0,0,0,0,0,0,0,0,0,0,0,0,0,
0,0,0,0,0,0,0,0,0,0,0,0,0,0,0,0,0,0,0,0,0,0,0,0,0,
0,0,0,0,0,0,0,0,0,0,0,0,0,0,0,0,0,0,0,0,0,0,0,0,0,
0,0,0,0,0,0,0,0,0,0,0,0,0,0,0,0,0,0,0,0,0,0,0,0,0,
0,0,0,0,0,0,0,0,0,0,0,0,0,0,0,0,0,0,0,0,0,0,0,0,0,
0,0,0,0,0,0,0,0,0,0,0,0,0,0,0,0,0,0,0,0,0,0,0,0,0,
0,0,0,0,0,0,0,0,0,0,0,0,0,0,0,0,0,0,0,0,0,0,0,0,0,
0,0,0,0,0,0,0,0,0,0,0,0,0,0,0,0,0,0,0,0,0,0,0,0,0,
0,0,0,0,0,0,0,0,0,0,0,0,0,0,0,0,0,0,0,0,0,0,0,0,0,
0,0,0,0,0,0,0,0,0,0,0,0,0,0,0,0,0,0,0,0,0,0,0,0,0,
0,0,0,0,0,0,0,0,0,0,0,0,0,0,0,0,0,0,0,0,0,0,0,0,0,
0,0,0,0,0,0,0,0,0,0,0,0,0,0,0,0,0,0,0,0,0,0,0,0,0,
0,0,0,0,0,0,0,0,0,0,0,0,0,0,0,0,0,0,0,0,0,0,0,0,0,
0,0,0,0,0,0,0,0,0,0,0,0,0,0,0,0,0,0,0,0,0,0,0,0,0,
0,0,0,0,0,0,0,0,0,0,0,0,0,0,0,0,0,0,0,0,0,0,0,0,0,
0,0,0,0,0,0,0,0,0,0,0,0,0,0,0,0,0,0,0,0,0,0,0,0,0,
0,0,0,0,0,0,0,0,0,0,0,0,0,0,0,0,0,0,0,0,0,0,0,0,0,
0,0,0,0,0,0,0,0,0,0,0,0,0,0,0,0,0,0,0,0,0,0,0,0,0,
0,0,0,0,0,0,0,0,0,0,0,0,0,0,0,0,0,0,0,0,0,0,0,0,0,
0,0,0,0,0,0,0,0,0,0,0,0,0,0,0,0,0,0,0,0,0,0,0,0,0,
0,0,0,0,0,0,0,0,0,0,0,0,0,0,0,0,0,0,0,0,0,0,0,0,0,
0,0,0,0,0,0,0,0,0,0,0,0,0,0,0,0,0,0,0,0,0,0,0,0,0,
0,0,0,0,0,0,0,0,0,0,0,0,0,0,0,0,0,0,0,0,0,0,0,0,0,
0,0,0,0,0,0,0,0,0,0,0,0,0,0,0,0,0,0,0,0,0,0,0,0,0,
0,0,0,0,0,0,0,0,0,0,0,0,0,0,0,0,0,0,0,0,0,0,0,0,0,
0,0,0,0,0,0,0,0,0,0,0,0,0,0,0,0,0,0,0,0,0,0,0,0,0,
0,0,0,0,0,0,0,0,0,0,0,0,0,0,0,0,0,0,0,0,0,0,0,0,0,
0,0,0,0,0,0,0,0,0,0,0,0,0,0,0,0,0,0,0,0,0,0,0,0,0,
0,0,0,0,0,0,0,0,0,0,0,0,0,0,0,0,0,0,0,0,0,0,0,0,0,
0,0,0,0,0,0,0,0,0,0,0,0,0,0,0,0,0,0,0,0,0,0,0,0,0,
0,0,0,0,0,0,0,0,0,0,0,0,0,0,0,0,0,0,0,0,0,0,0,0,0,
0,0,0,0,0,0,0,0,0,0,0,0,0,0,0,0,0,0,0,0,0,0,0,0,0,
0,0,0,0,0,0,0,0,0,0,0,0,0,0,0,0,0,0,0,0,0,0,0,0,0,
0,0,0,0,0,0,0,0,0,0,0,0,0,0,0,0,0,0,0,0,0,0,0,0,0,
0,0,0,0,0,0,0,0,0,0,0,0,0,0,0,0,0,0,0,0,0,0,0,0,0,
0,0,0,0,0,0,0,0,0,0,0,0,0,0,0,0,0,0,0,0,0,0,0,0,0,
0,0,0,0,0,0,0,0,0,0,0,0,0,0,0,0,0,0,0,0,0,0,0,0,0,
0,0,0,0,0,0,0,0,0,0,0,0,0,0,0,0,0,0,0,0,0,0,0,0,0,
0,0,0,0,0,0,0,0,0,0,0,0,0,0,0,0,0,0,0,0,0,0,0,0,0,
0,0,0,0,0,0,0,0,0,0,0,0,0,0,0,0,0,0,0,0,0,0,0,0,0,
0,0,0,0,0,0,0,0,0,0,0,0,0,0,0,0,0,0,0,0,0,0,0,0,0,
0,0,0,0,0,0,0,0,0,0,0,0,0,0,0,0,0,0,0,0,0,0,0,0,0,
0,0,0,0,0,0,0,0,0,0,0,0,0,0,0,0,0,0,0,0,0,0,0,0,0,
0,0,0,0,0,0,0,0,0,0,0,0,0,0,0,0,0,0,0,0,0,0,0,0,0,
0,0,0,0,0,0,0,0,0,0,0,0,0,0,0,0,0,0,0,0,0,0,0,0,0,
0,0,0,0,0,0,0,0,0,0,0,0,0,0,0,0,0,0,0,0,0,0,0,0,0,
0,0,0,0,0,0,0,0,0,0,0,0,0,0,0,0,0,0,0,0,0,0,0,0,0,
0,0,0,0,0,0,0,0,0,0,0,0,0,0,0,0,0,0,0,0,0,0,0,0,0,
0,0,0,0,0,0,0,0,0,0,0,1073742633,1073742634,1073742635,0,0,0,0,0,0,0,0,0,0,0,
0,0,0,0,0,0,0,0,0,0,0,1073742569,1073742570,1073742571,0,0,0,0,0,0,0,0,0,0,0,
0,0,0,0,0,0,0,0,0,0,0,0,0,0,0,0,0,0,0,0,0,0,0,0,0,
0,0,0,0,0,0,0,0,0,0,0,0,0,0,0,0,0,0,0,0,0,0,0,0,0,
0,0,0,0,0,0,0,0,0,0,0,0,0,0,0,0,0,0,0,0,0,0,0,0,0
</data>
 </layer>
 <layer id="5" name="DeathPit" width="25" height="110">
  <data encoding="csv">
0,0,0,0,0,0,0,0,0,0,0,0,0,0,0,0,0,0,0,0,0,0,0,0,0,
0,0,0,0,0,0,0,0,0,0,0,0,0,0,0,0,0,0,0,0,0,0,0,0,0,
0,0,0,0,0,0,0,0,0,0,0,0,0,0,0,0,0,0,0,0,0,0,0,0,0,
0,0,0,0,0,0,0,0,0,0,0,0,0,0,0,0,0,0,0,0,0,0,0,0,0,
0,0,0,0,0,0,0,0,0,0,0,0,0,0,0,0,0,0,0,0,0,0,0,0,0,
0,0,0,0,0,0,0,0,0,0,0,0,0,0,0,0,0,0,0,0,0,0,0,0,0,
0,0,0,0,0,0,0,0,0,0,0,0,0,0,0,0,0,0,0,0,0,0,0,0,0,
0,0,0,0,0,0,0,0,0,0,0,0,0,0,0,0,0,0,0,0,0,0,0,0,0,
0,0,0,0,0,0,0,0,0,0,0,0,0,0,0,0,0,0,0,0,0,0,0,0,0,
0,0,0,0,0,0,0,0,0,0,0,0,0,0,0,0,0,0,0,0,0,0,0,0,0,
0,0,0,0,0,0,0,0,0,0,0,0,0,0,0,0,0,0,0,0,0,0,0,0,0,
0,0,0,0,0,0,0,0,0,0,0,0,0,0,0,0,0,0,0,0,0,0,0,0,0,
0,0,0,0,0,0,0,0,0,0,0,0,0,0,0,0,0,0,0,0,0,0,0,0,0,
0,0,0,0,0,0,0,0,0,0,0,0,0,0,0,0,0,0,0,0,0,0,0,0,0,
0,0,0,0,0,0,0,0,0,0,0,0,0,0,0,0,0,0,0,0,0,0,0,0,0,
0,0,0,0,0,0,0,0,0,0,0,0,0,0,0,0,0,0,0,0,0,0,0,0,0,
0,0,0,0,0,0,0,0,0,0,0,0,0,0,0,0,0,0,0,0,0,0,0,0,0,
0,0,0,0,0,0,0,0,0,0,0,0,0,0,0,0,0,0,0,0,0,0,0,0,0,
0,0,0,0,0,0,0,0,0,0,0,0,0,0,0,0,0,0,0,0,0,0,0,0,0,
0,0,0,0,0,0,0,0,0,0,0,0,0,0,0,0,0,0,0,0,0,0,0,0,0,
0,0,0,0,0,0,0,0,0,0,0,0,0,0,0,0,0,0,0,0,0,0,0,0,0,
0,0,0,0,0,0,0,0,0,0,0,0,0,0,0,0,0,0,0,0,0,0,0,0,0,
0,0,0,0,0,0,0,0,0,0,0,0,0,0,0,0,0,0,0,0,0,0,0,0,0,
0,0,0,0,0,0,0,0,0,0,0,0,0,0,0,0,0,0,0,0,0,0,0,0,0,
0,0,0,0,0,0,0,0,0,0,0,0,0,0,0,0,0,0,0,0,0,0,0,0,0,
0,0,0,0,0,0,0,0,0,0,0,0,0,0,0,0,0,0,0,0,0,0,0,0,0,
0,0,0,0,0,0,0,0,0,0,0,0,0,0,0,0,0,0,0,0,0,0,0,0,0,
0,0,0,0,0,0,0,0,0,0,0,0,0,0,0,0,0,0,0,0,0,0,0,0,0,
0,0,0,0,0,0,0,0,0,0,0,0,0,0,0,0,0,0,0,0,0,0,0,0,0,
0,0,0,0,0,0,0,0,0,0,0,0,0,0,0,0,0,0,0,0,0,0,0,0,0,
0,0,0,0,0,0,0,0,0,0,0,0,0,0,0,0,0,0,0,0,0,0,0,0,0,
0,0,0,0,0,0,0,0,0,0,0,0,0,0,0,0,0,0,0,0,0,0,0,0,0,
0,0,0,0,0,0,0,0,0,0,0,0,0,0,0,0,0,0,0,0,0,0,0,0,0,
0,0,0,0,0,0,0,0,0,0,0,0,0,0,0,0,0,0,0,0,0,0,0,0,0,
0,0,0,0,0,0,0,0,0,0,0,0,0,0,0,0,0,0,0,0,0,0,0,0,0,
0,0,0,0,0,0,0,0,0,0,0,0,0,0,0,0,0,0,0,0,0,0,0,0,0,
0,0,0,0,0,0,0,0,0,0,0,0,0,0,0,0,0,0,0,0,0,0,0,0,0,
0,0,0,0,0,0,0,0,0,0,0,0,0,0,0,0,0,0,0,0,0,0,0,0,0,
0,0,0,0,0,0,0,0,0,0,0,0,0,0,0,0,0,0,0,0,0,0,0,0,0,
0,0,0,0,0,0,0,0,0,0,0,0,0,0,0,0,0,0,0,0,0,0,0,0,0,
0,0,0,0,0,0,0,0,0,0,0,0,0,0,0,0,0,0,0,0,0,0,0,0,0,
0,0,0,0,0,0,0,0,0,0,0,0,0,0,0,0,0,0,0,0,0,0,0,0,0,
0,0,0,0,0,0,0,0,0,0,0,0,0,0,0,0,0,0,0,0,0,0,0,0,0,
0,0,0,0,0,0,0,0,0,0,0,0,0,0,0,0,0,0,0,0,0,0,0,0,0,
0,0,0,0,0,0,0,0,0,0,0,0,0,0,0,0,0,0,0,0,0,0,0,0,0,
0,0,0,0,0,0,0,0,0,0,0,0,0,0,0,0,0,0,0,0,0,0,0,0,0,
0,0,0,0,0,0,0,0,0,0,0,0,0,0,0,0,0,0,0,0,0,0,0,0,0,
0,0,0,0,0,0,0,0,0,0,0,0,0,0,0,0,0,0,0,0,0,0,0,0,0,
0,0,0,0,0,0,0,0,0,0,0,0,0,0,0,0,0,0,0,0,0,0,0,0,0,
0,0,0,0,0,0,0,0,0,0,0,0,0,0,0,0,0,0,0,0,0,0,0,0,0,
0,0,0,0,0,0,0,0,0,0,0,0,0,0,0,0,0,0,0,0,0,0,0,0,0,
0,0,0,0,0,0,0,0,0,0,0,0,0,0,0,0,0,0,0,0,0,0,0,0,0,
0,0,0,0,0,0,0,0,0,0,0,0,0,0,0,0,0,0,0,0,0,0,0,0,0,
0,0,0,0,0,0,0,0,0,0,0,0,0,0,0,0,0,0,0,0,0,0,0,0,0,
0,0,0,0,0,0,0,0,0,0,0,0,0,0,0,0,0,0,0,0,0,0,0,0,0,
0,0,0,0,0,0,0,0,0,0,0,0,0,0,0,0,0,0,0,0,0,0,0,0,0,
0,0,0,0,0,0,0,0,0,0,0,0,0,0,0,0,0,0,0,0,0,0,0,0,0,
0,0,0,0,0,0,0,0,0,0,0,0,0,0,0,0,0,0,0,0,0,0,0,0,0,
0,0,0,0,0,0,0,0,0,0,0,0,0,0,0,0,0,0,0,0,0,0,0,0,0,
0,0,0,0,0,0,0,0,0,0,0,0,0,0,0,0,0,0,0,0,0,0,0,0,0,
0,0,0,0,0,0,0,0,0,0,0,0,0,0,0,0,0,0,0,0,0,0,0,0,0,
0,0,0,0,0,0,0,0,0,0,0,0,0,0,0,0,0,0,0,0,0,0,0,0,0,
0,0,0,0,0,0,0,0,0,0,0,0,0,0,0,0,0,0,0,0,0,0,0,0,0,
0,0,0,0,0,0,0,0,0,0,0,0,0,0,0,0,0,0,0,0,0,0,0,0,0,
0,0,0,0,0,0,0,0,0,0,0,0,0,0,0,0,0,0,0,0,0,0,0,0,0,
0,0,0,0,0,0,0,0,0,0,0,0,0,0,0,0,0,0,0,0,0,0,0,0,0,
0,0,0,0,0,0,0,0,0,0,0,0,0,0,0,0,0,0,0,0,0,0,0,0,0,
0,0,0,0,0,0,0,0,0,0,0,0,0,0,0,0,0,0,0,0,0,0,0,0,0,
0,0,0,0,0,0,0,0,0,0,0,0,0,0,0,0,0,0,0,0,0,0,0,0,0,
0,0,0,0,0,0,0,0,0,0,0,0,0,0,0,0,0,0,0,0,0,0,0,0,0,
0,0,0,0,0,0,0,0,0,0,0,0,0,0,0,0,0,0,0,0,0,0,0,0,0,
0,0,0,0,0,0,0,0,0,0,0,0,0,0,0,0,0,0,0,0,0,0,0,0,0,
0,0,0,0,0,0,0,0,0,0,0,0,0,0,0,0,0,0,0,0,0,0,0,0,0,
0,0,0,0,0,0,0,0,0,0,0,0,0,0,0,0,0,0,0,0,0,0,0,0,0,
0,0,0,0,0,0,0,0,0,0,0,0,0,0,0,0,0,0,0,0,0,0,0,0,0,
0,0,0,0,0,0,0,0,0,0,0,0,0,0,0,0,0,0,0,0,0,0,0,0,0,
0,0,0,0,0,0,0,0,0,0,0,0,0,0,0,0,0,0,0,0,0,0,0,0,0,
0,0,0,0,0,0,0,0,0,0,0,0,0,0,0,0,0,0,0,0,0,0,0,0,0,
0,0,0,0,0,0,0,0,0,0,0,0,0,0,0,0,0,0,0,0,0,0,0,0,0,
0,0,0,0,0,0,0,0,0,0,0,0,0,0,0,0,0,0,0,0,0,0,0,0,0,
0,0,0,0,1570,1571,1572,1573,0,0,0,0,0,0,0,0,0,1570,1571,1572,1573,0,0,0,0,
0,0,0,0,1634,1635,1636,1637,0,0,0,0,0,0,0,0,0,1634,1635,1636,1637,0,0,0,0,
0,0,0,0,1698,1699,1700,1701,0,0,0,0,0,0,0,0,0,1698,1699,1700,1701,0,0,0,0,
0,0,0,0,1762,1763,1764,1765,0,0,0,0,0,0,0,0,0,1762,1763,1764,1765,0,0,0,0,
0,0,0,0,0,0,0,0,0,0,0,0,0,0,0,0,0,0,0,0,0,0,0,0,0,
0,0,0,0,0,0,0,0,0,0,0,0,0,0,0,0,0,0,0,0,0,0,0,0,0,
0,0,0,0,0,0,0,0,0,0,0,0,0,0,0,0,0,0,0,0,0,0,0,0,0,
0,0,0,0,0,0,0,0,0,0,0,0,0,0,0,0,0,0,0,0,0,0,0,0,0,
0,0,0,0,0,0,0,0,0,0,0,0,0,0,0,0,0,0,0,0,0,0,0,0,0,
0,0,0,0,0,0,0,0,0,0,0,0,0,0,0,0,0,0,0,0,0,0,0,0,0,
0,0,0,0,0,0,0,0,0,0,0,0,0,0,0,0,0,0,0,0,0,0,0,0,0,
0,0,0,0,0,0,0,0,0,0,0,0,0,0,0,0,0,0,0,0,0,0,0,0,0,
0,0,0,0,0,0,0,0,0,0,0,0,0,0,0,0,0,0,0,0,0,0,0,0,0,
0,0,0,0,0,0,0,0,0,0,0,0,0,0,0,0,0,0,0,0,0,0,0,0,0,
0,0,0,0,0,0,0,0,0,0,0,0,0,0,0,0,0,0,0,0,0,0,0,0,0,
0,0,0,0,0,0,0,0,0,0,0,0,0,0,0,0,0,0,0,0,0,0,0,0,0,
0,0,0,0,0,0,0,0,0,0,0,0,0,0,0,0,0,0,0,0,0,0,0,0,0,
0,0,0,0,0,0,0,0,0,0,0,0,0,0,0,0,0,0,0,0,0,0,0,0,0,
0,0,0,0,0,0,0,0,0,0,0,0,0,0,0,0,0,0,0,0,0,0,0,0,0,
0,0,0,0,0,0,0,0,0,0,0,0,0,0,0,0,0,0,0,0,0,0,0,0,0,
0,0,0,0,0,0,0,0,0,0,0,0,0,0,0,0,0,0,0,0,0,0,0,0,0,
0,0,0,0,0,0,0,0,0,0,0,0,0,0,0,0,0,0,0,0,0,0,0,0,0,
0,0,0,0,0,0,0,0,0,0,0,0,0,0,0,0,0,0,0,0,0,0,0,0,0,
0,0,0,0,0,0,0,0,0,0,0,0,0,0,0,0,0,0,0,0,0,0,0,0,0,
0,0,0,0,0,0,0,0,0,0,0,0,0,0,0,0,0,0,0,0,0,0,0,0,0,
0,0,0,0,0,0,0,0,0,0,0,0,0,0,0,0,0,0,0,0,0,0,0,0,0,
0,0,0,0,0,0,0,0,0,0,0,0,0,0,0,0,0,0,0,0,0,0,0,0,0,
0,0,0,0,0,0,0,0,0,0,0,0,0,0,0,0,0,0,0,0,0,0,0,0,0,
0,0,0,0,0,0,0,0,0,0,0,0,0,0,0,0,0,0,0,0,0,0,0,0,0,
0,0,0,0,0,0,0,0,0,0,0,0,0,0,0,0,0,0,0,0,0,0,0,0,0
</data>
 </layer>
 <layer id="6" name="Perimeter" width="25" height="110">
  <data encoding="csv">
0,0,0,0,0,0,0,0,0,0,0,0,0,0,0,0,0,0,0,0,0,0,0,0,0,
0,0,0,0,0,0,0,0,0,0,0,0,0,0,0,0,0,0,0,0,0,0,0,0,0,
0,0,0,0,0,0,0,0,0,0,0,0,0,0,0,0,0,0,0,0,0,0,0,0,0,
0,0,0,0,0,0,0,0,0,0,0,0,0,0,0,0,0,0,0,0,0,0,0,0,0,
0,0,0,0,0,0,0,0,0,0,0,0,0,0,0,0,0,0,0,0,0,0,0,0,0,
0,0,0,0,0,0,0,0,0,0,0,0,0,0,0,0,0,0,0,0,0,0,0,0,0,
0,0,0,0,0,0,0,0,0,0,0,0,0,0,0,0,0,0,0,0,0,0,0,0,0,
0,0,0,0,0,0,0,0,0,0,0,0,0,0,0,0,0,0,0,0,0,0,0,0,0,
0,0,0,0,0,0,0,0,0,0,0,0,0,0,0,0,0,0,0,0,0,0,0,0,0,
0,0,0,0,0,0,0,0,0,0,0,0,0,0,0,0,0,0,0,0,0,0,0,0,0,
0,0,0,0,0,0,0,0,0,0,0,0,0,0,0,0,0,0,0,0,0,0,0,0,0,
0,0,0,0,0,0,0,0,0,0,0,0,0,0,0,0,0,0,0,0,0,0,0,0,0,
0,0,0,0,0,0,0,0,0,0,0,0,0,0,0,0,0,0,0,0,0,0,0,0,0,
0,0,0,0,0,0,0,0,0,0,0,0,0,0,0,0,0,0,0,0,0,0,0,0,0,
0,0,0,0,0,0,0,0,0,0,0,0,0,0,0,0,0,0,0,0,0,0,0,0,0,
0,0,0,0,0,0,0,0,0,0,0,0,0,0,0,0,0,0,0,0,0,0,0,0,0,
0,0,0,0,0,0,0,0,0,0,0,0,0,0,0,0,0,0,0,0,0,0,0,0,0,
0,0,0,0,0,0,0,0,0,0,0,0,0,0,0,0,0,0,0,0,0,0,0,0,0,
0,0,0,0,0,0,0,0,0,0,0,0,0,0,0,0,0,0,0,0,0,0,0,0,0,
0,0,0,0,0,0,0,0,0,0,0,0,0,0,0,0,0,0,0,0,0,0,0,0,0,
0,0,0,0,0,0,0,0,0,0,0,0,0,0,0,0,0,0,0,0,0,0,0,0,0,
0,0,0,0,0,0,0,0,0,0,0,0,0,0,0,0,0,0,0,0,0,0,0,0,0,
0,0,0,0,0,0,0,0,0,0,0,0,0,0,0,0,0,0,0,0,0,0,0,0,0,
0,0,0,0,0,0,0,0,0,0,0,0,0,0,0,0,0,0,0,0,0,0,0,0,0,
0,0,0,0,0,0,0,0,0,0,0,0,0,0,0,0,0,0,0,0,0,0,0,0,0,
0,0,0,0,0,0,0,0,0,0,0,0,0,0,0,0,0,0,0,0,0,0,0,0,0,
0,0,0,0,0,0,0,0,0,0,0,0,0,0,0,0,0,0,0,0,0,0,0,0,0,
0,0,0,0,0,0,0,0,0,0,0,0,0,0,0,0,0,0,0,0,0,0,0,0,0,
0,0,0,0,0,0,0,0,0,0,0,0,0,0,0,0,0,0,0,0,0,0,0,0,0,
0,0,0,0,0,0,0,0,0,0,0,0,0,0,0,0,0,0,0,0,0,0,0,0,0,
0,0,0,0,0,0,0,0,0,0,0,0,0,0,0,0,0,0,0,0,0,0,0,0,0,
0,0,0,0,0,0,0,0,0,0,0,0,0,0,0,0,0,0,0,0,0,0,0,0,0,
0,0,0,0,0,0,0,0,0,0,0,0,0,0,0,0,0,0,0,0,0,0,0,0,0,
0,0,0,0,0,0,0,0,0,0,0,0,0,0,0,0,0,0,0,0,0,0,0,0,0,
0,0,0,0,0,0,0,0,0,0,0,0,0,0,0,0,0,0,0,0,0,0,0,0,0,
0,0,0,0,0,0,0,0,0,0,0,0,0,0,0,0,0,0,0,0,0,0,0,0,0,
0,0,0,0,0,0,0,0,0,0,0,0,0,0,0,0,0,0,0,0,0,0,0,0,0,
0,0,0,0,0,0,0,0,0,0,0,0,0,0,0,0,0,0,0,0,0,0,0,0,0,
0,0,0,0,0,0,0,0,0,0,0,0,0,0,0,0,0,0,0,0,0,0,0,0,0,
0,0,0,0,0,0,0,0,0,0,0,0,0,0,0,0,0,0,0,0,0,0,0,0,0,
0,0,0,0,0,0,0,0,0,0,0,0,0,0,0,0,0,0,0,0,0,0,0,0,0,
0,0,0,0,0,0,0,0,0,0,0,0,0,0,0,0,0,0,0,0,0,0,0,0,0,
0,0,0,0,0,0,0,0,0,0,0,0,0,0,0,0,0,0,0,0,0,0,0,0,0,
0,0,0,0,0,0,0,0,0,0,0,0,0,0,0,0,0,0,0,0,0,0,0,0,0,
0,0,0,3221226657,3221226656,0,0,0,0,0,0,0,0,0,0,0,0,0,0,0,3221226657,3221226656,0,0,0,
0,0,0,3221226593,3221226592,0,0,0,0,0,0,0,0,0,0,0,0,0,0,0,3221226593,3221226592,0,0,0,
0,0,0,3221226529,3221226528,0,0,0,0,0,0,0,0,0,0,0,0,0,0,0,3221226529,3221226528,0,0,0,
0,0,0,3221226465,3221226464,0,0,0,0,0,0,0,0,0,0,0,0,0,0,0,3221226465,3221226464,0,0,0,
0,0,0,0,0,0,0,0,0,0,0,0,0,0,0,0,0,0,0,0,0,0,0,0,0,
0,0,0,0,0,0,0,0,0,0,0,0,0,0,0,0,0,0,0,0,0,0,0,0,0,
0,0,0,0,0,0,0,0,0,0,0,0,0,0,0,0,0,0,0,0,0,0,0,0,0,
0,0,0,0,0,0,0,0,0,0,0,0,0,0,0,0,0,0,0,0,0,0,0,0,0,
0,0,0,0,0,0,0,0,0,0,0,0,0,0,0,0,0,0,0,0,0,0,0,0,0,
0,0,0,0,0,0,0,0,0,0,0,0,0,0,0,0,0,0,0,0,0,0,0,0,0,
0,0,0,0,0,0,0,0,0,0,0,0,0,0,0,0,0,0,0,0,0,0,0,0,0,
0,0,0,0,0,0,0,0,0,0,0,0,0,0,0,0,0,0,0,0,0,0,0,0,0,
0,0,0,0,0,0,0,0,0,0,0,0,0,0,0,0,0,0,0,0,0,0,0,0,0,
0,0,0,0,0,0,0,0,0,0,0,0,0,0,0,0,0,0,0,0,0,0,0,0,0,
0,0,0,0,0,0,0,0,0,0,0,0,0,0,0,0,0,0,0,0,0,0,0,0,0,
0,0,0,0,0,0,0,0,0,0,0,0,0,0,0,0,0,0,0,0,0,0,0,0,0,
0,0,0,0,0,0,0,0,0,0,0,0,0,0,0,0,0,0,0,0,0,0,0,0,0,
0,0,0,0,0,0,0,0,0,0,0,0,0,0,0,0,0,0,0,0,0,0,0,0,0,
0,0,0,0,0,0,0,0,0,0,0,0,0,0,0,0,0,0,0,0,0,0,0,0,0,
0,0,0,0,0,0,0,0,0,0,0,0,0,0,0,0,0,0,0,0,0,0,0,0,0,
0,0,0,0,0,0,0,0,0,0,0,0,0,0,0,0,0,0,0,0,0,0,0,0,0,
0,0,0,0,0,0,0,0,0,0,0,0,0,0,0,0,0,0,0,0,0,0,0,0,0,
0,0,0,0,0,0,0,0,0,0,0,0,0,0,0,0,0,0,0,0,0,0,0,0,0,
0,0,0,0,0,0,0,0,0,0,0,0,0,0,0,0,0,0,0,0,0,0,0,0,0,
0,0,0,0,0,0,0,0,0,0,0,0,0,0,0,0,0,0,0,0,0,0,0,0,0,
0,0,0,0,0,0,0,0,0,0,0,0,0,0,0,0,0,0,0,0,0,0,0,0,0,
0,0,0,0,0,0,0,0,0,0,0,0,0,0,0,0,0,0,0,0,0,0,0,0,0,
0,0,0,0,0,0,0,0,0,0,0,0,0,0,0,0,0,0,0,0,0,0,0,0,0,
0,0,0,0,0,0,0,0,0,0,0,0,0,0,0,0,0,0,0,0,0,0,0,0,0,
0,0,0,0,0,0,0,0,0,0,0,0,0,0,0,0,0,0,0,0,0,0,0,0,0,
0,0,0,0,0,0,0,0,0,0,0,0,0,0,0,0,0,0,0,0,0,0,0,0,0,
0,0,0,0,0,0,0,0,0,0,0,0,0,0,0,0,0,0,0,0,0,0,0,0,0,
0,0,0,0,0,0,0,0,0,0,0,0,0,0,0,0,0,0,0,0,0,0,0,0,0,
0,0,0,0,0,0,0,0,0,0,0,0,0,0,0,0,0,0,0,0,0,0,0,0,0,
0,0,0,0,0,0,0,0,0,0,0,0,0,0,0,0,0,0,0,0,0,0,0,0,0,
0,0,0,1505,1506,1507,1508,1509,1510,0,0,0,0,0,0,0,1505,1506,1507,1508,1509,1510,0,0,0,
0,0,0,1569,0,0,0,0,1574,0,0,0,0,0,0,0,1569,0,0,0,0,1574,0,0,0,
0,0,0,1633,0,0,0,0,1638,0,0,0,0,0,0,0,1633,0,0,0,0,1638,0,0,0,
0,0,0,1697,0,0,0,0,1702,0,0,0,0,0,0,0,1697,0,0,0,0,1702,0,0,0,
0,0,0,1761,0,0,0,0,1766,0,0,0,0,0,0,0,1761,0,0,0,0,1766,0,0,0,
0,0,0,1825,1826,1827,1828,1829,1830,0,0,0,0,0,0,0,1825,1826,1827,1828,1829,1830,0,0,0,
0,0,0,0,0,0,0,0,0,0,0,0,0,0,0,0,0,0,0,0,0,0,0,0,0,
0,0,0,0,0,0,0,0,0,0,0,0,0,0,0,0,0,0,0,0,0,0,0,0,0,
0,0,0,0,0,0,0,0,0,0,0,0,0,0,0,0,0,0,0,0,0,0,0,0,0,
0,0,0,0,0,0,0,0,0,0,0,0,0,0,0,0,0,0,0,0,0,0,0,0,0,
0,0,0,0,0,0,0,0,0,0,0,0,0,0,0,0,0,0,0,0,0,0,0,0,0,
0,0,0,0,0,0,0,0,0,0,0,0,0,0,0,0,0,0,0,0,0,0,0,0,0,
0,0,0,0,0,0,0,0,0,0,0,0,0,0,0,0,0,0,0,0,0,0,0,0,0,
0,0,0,0,0,0,0,0,0,0,0,0,0,0,0,0,0,0,0,0,0,0,0,0,0,
0,0,0,0,0,0,0,0,0,0,0,0,0,0,0,0,0,0,0,0,0,0,0,0,0,
0,0,0,0,0,0,0,0,0,0,0,0,0,0,0,0,0,0,0,0,0,0,0,0,0,
0,0,0,0,0,0,0,0,0,0,0,0,0,0,0,0,0,0,0,0,0,0,0,0,0,
0,0,0,0,0,0,0,0,0,0,0,0,0,0,0,0,0,0,0,0,0,0,0,0,0,
0,0,0,0,0,0,0,0,0,0,0,0,0,0,0,0,0,0,0,0,0,0,0,0,0,
0,0,0,0,0,0,0,0,0,0,0,0,0,0,0,0,0,0,0,0,0,0,0,0,0,
0,0,0,0,0,0,0,0,0,0,0,0,0,0,0,0,0,0,0,0,0,0,0,0,0,
0,0,0,0,0,0,0,0,0,0,0,0,0,0,0,0,0,0,0,0,0,0,0,0,0,
0,0,0,0,0,0,0,0,0,0,0,0,0,0,0,0,0,0,0,0,0,0,0,0,0,
0,0,0,0,0,0,0,0,0,0,0,0,0,0,0,0,0,0,0,0,0,0,0,0,0,
0,0,0,0,0,0,0,0,0,0,0,0,0,0,0,0,0,0,0,0,0,0,0,0,0,
0,0,0,0,0,0,0,0,0,0,0,0,0,0,0,0,0,0,0,0,0,0,0,0,0,
0,0,0,0,0,0,0,0,0,0,0,0,0,0,0,0,0,0,0,0,0,0,0,0,0,
0,0,0,0,0,0,0,0,0,0,0,0,0,0,0,0,0,0,0,0,0,0,0,0,0,
0,0,0,0,0,0,0,0,0,0,0,0,0,0,0,0,0,0,0,0,0,0,0,0,0,
0,0,0,0,0,0,0,0,0,0,0,0,0,0,0,0,0,0,0,0,0,0,0,0,0,
0,0,0,0,0,0,0,0,0,0,0,0,0,0,0,0,0,0,0,0,0,0,0,0,0
</data>
 </layer>
 <layer id="7" name="DecorationOnWalls" width="25" height="110">
  <data encoding="csv">
0,0,0,0,0,0,0,0,0,0,0,0,0,0,0,0,0,0,0,0,0,0,0,0,0,
0,0,0,0,0,0,0,0,0,0,0,0,0,0,0,0,0,0,0,0,0,0,0,0,0,
0,0,0,0,0,0,0,0,0,0,0,0,0,0,0,0,0,0,0,0,0,0,0,0,0,
0,0,0,0,0,0,0,0,0,0,0,0,0,0,0,0,0,0,0,0,0,0,0,0,0,
0,0,0,0,0,0,0,0,0,0,0,0,0,0,0,0,0,0,0,0,0,0,0,0,0,
0,0,0,0,0,0,0,0,0,0,0,0,0,0,0,0,0,0,0,0,0,0,0,0,0,
0,0,0,0,0,0,22,0,0,0,0,0,0,0,0,0,0,0,0,22,0,0,0,0,0,
0,0,0,0,0,0,38,0,0,0,0,0,0,0,0,0,0,0,0,38,0,0,0,0,0,
0,0,0,0,0,0,0,0,0,0,0,0,0,0,0,0,0,0,0,0,0,0,0,0,0,
0,0,0,0,0,0,0,0,0,0,0,0,0,0,0,0,0,0,0,0,0,0,0,0,0,
0,0,0,0,0,0,0,0,0,0,0,0,0,0,0,0,0,0,0,0,0,0,0,0,0,
0,0,0,0,0,0,0,0,0,0,0,0,0,0,0,0,0,0,0,0,0,0,0,0,0,
0,0,0,0,0,0,0,0,0,0,0,0,0,0,0,0,0,0,0,0,0,0,0,0,0,
0,0,0,0,0,0,0,0,0,0,0,0,0,0,0,0,0,0,0,0,0,0,0,0,0,
0,0,0,0,0,0,0,0,0,0,0,0,0,0,0,0,0,0,0,0,0,0,0,0,0,
0,0,0,0,0,0,0,0,0,0,0,0,0,0,0,0,0,0,0,0,0,0,0,0,0,
0,0,0,0,0,0,0,0,0,0,0,0,0,0,0,0,0,0,0,0,0,0,0,0,0,
0,0,0,0,0,0,0,0,0,0,0,0,0,0,0,0,0,0,0,0,0,0,0,0,0,
0,0,0,0,0,0,0,0,0,0,0,0,0,0,0,0,0,0,0,0,0,0,0,0,0,
0,0,0,0,0,0,0,0,0,0,0,0,0,0,0,0,0,0,0,0,0,0,0,0,0,
0,0,0,0,0,0,0,0,0,0,0,0,0,0,0,0,0,0,0,0,0,0,0,0,0,
0,0,0,0,0,0,0,0,0,0,0,0,0,0,0,0,0,0,0,0,0,0,0,0,0,
0,0,0,0,0,0,0,0,0,0,0,0,0,0,0,0,0,0,0,0,0,0,0,0,0,
0,0,0,0,0,0,0,0,0,0,0,0,0,0,0,0,0,0,0,0,0,0,0,0,0,
0,0,0,0,0,0,0,0,0,0,0,0,0,0,0,0,0,0,0,0,0,0,0,0,0,
0,0,0,0,0,0,0,0,0,0,0,0,0,0,0,0,0,0,0,0,0,0,0,0,0,
0,0,0,0,0,2684356121,2684356057,2684355993,2684355929,2684355865,2684355801,0,0,0,2684356121,2684356057,2684355993,2684355929,2684355865,2684355801,0,0,0,0,0,
0,0,0,0,0,2684356122,2684356442,2684356378,2684356442,2684356378,2684355802,0,0,0,2684356122,2684356442,2684356378,2684356442,2684356378,2684355802,0,0,0,0,0,
0,0,0,0,0,2684356123,2684356443,2684356379,2684356443,2684356379,2684355803,0,0,0,2684356123,2684356443,2684356379,2684356443,2684356379,2684355803,0,0,0,0,0,
0,0,0,0,0,2684356124,2684356442,2684356378,2684356442,2684356378,2684355804,0,0,0,2684356124,2684356442,2684356378,2684356442,2684356378,2684355804,0,0,0,0,0,
0,0,0,0,0,2684356125,2684356443,2684356379,2684356443,2684356379,2684355805,0,0,0,2684356125,2684356443,2684356379,2684356443,2684356379,2684355805,0,0,0,0,0,
0,0,0,0,0,2684356126,2684356062,2684355998,2684355934,2684355870,2684355806,0,0,0,2684356126,2684356062,2684355998,2684355934,2684355870,2684355806,0,0,0,0,0,
0,0,0,0,0,0,0,0,0,2147483670,0,0,0,0,0,2147483670,0,0,0,0,0,0,0,0,0,
0,0,0,0,0,0,0,0,0,2147483686,0,0,0,0,0,2147483686,0,2147484894,0,0,0,0,0,0,0,
0,0,0,0,0,0,0,0,0,0,0,0,0,0,0,0,0,2147484958,0,0,0,0,0,0,0,
0,0,0,0,0,0,0,0,0,0,0,0,0,0,0,0,0,2147485022,0,0,0,0,0,0,0,
0,0,0,0,0,0,0,0,0,0,0,0,0,0,0,0,0,0,0,0,0,0,0,0,0,
0,0,0,0,0,0,0,0,0,0,0,0,0,0,0,0,0,0,0,0,0,0,0,0,0,
0,0,0,0,0,0,0,0,0,0,0,0,0,0,0,0,0,0,0,0,0,0,0,0,0,
0,0,0,0,0,0,0,0,0,0,0,0,0,0,0,0,0,0,0,0,0,0,0,0,0,
0,0,0,0,0,0,0,0,0,0,0,0,0,0,0,0,0,0,0,0,0,0,0,0,0,
0,0,0,0,0,0,0,0,0,0,0,0,0,0,0,0,0,0,0,0,0,0,0,0,0,
0,0,0,0,0,0,0,0,0,0,0,0,0,0,0,0,0,0,0,0,0,0,0,0,0,
0,0,0,0,0,0,0,0,0,0,0,0,0,0,0,0,0,0,0,0,0,0,0,0,0,
0,0,0,0,0,0,0,0,0,0,0,0,0,0,0,0,0,0,0,0,0,0,0,0,0,
0,0,0,0,0,0,0,0,0,0,0,0,0,0,0,0,0,0,0,0,0,0,0,0,0,
0,0,0,0,0,0,0,0,0,0,0,0,0,0,0,0,0,0,0,0,0,0,0,0,0,
0,0,0,0,0,0,0,0,0,0,0,0,0,0,0,0,0,0,0,0,0,0,0,0,0,
0,0,0,0,0,0,0,0,0,0,0,0,0,0,0,0,0,0,0,0,0,0,0,0,0,
0,0,0,0,0,0,0,0,0,0,0,0,0,0,0,0,0,0,0,0,0,0,0,0,0,
0,0,0,0,0,0,0,0,0,0,0,0,0,0,0,0,0,0,0,0,0,0,0,0,0,
0,0,0,0,0,0,0,0,0,0,0,0,0,0,0,0,0,0,0,0,0,0,0,0,0,
0,0,0,0,0,0,0,0,0,0,0,0,0,0,0,0,0,0,0,0,0,0,0,0,0,
0,0,0,0,0,0,0,0,0,0,0,0,0,0,0,0,0,0,0,0,0,0,0,0,0,
0,0,0,0,0,0,0,0,0,0,0,0,0,0,0,0,0,0,0,0,0,0,0,0,0,
0,0,0,0,0,0,0,0,0,0,0,0,0,0,0,0,0,0,0,0,0,0,0,0,0,
0,0,0,0,0,0,0,0,0,0,0,0,0,0,0,0,0,0,0,0,0,0,0,0,0,
0,0,0,0,0,0,0,0,0,0,0,0,0,0,0,0,0,0,0,0,0,0,0,0,0,
0,0,0,0,0,0,0,0,0,0,0,0,0,0,0,0,0,0,0,0,0,0,0,0,0,
0,0,0,0,0,0,0,0,0,0,0,0,0,0,0,0,0,0,0,0,0,0,0,0,0,
0,0,0,0,0,0,0,0,0,0,0,0,0,0,0,0,0,3221226846,0,0,0,0,0,0,0,
0,0,0,0,0,0,0,0,0,0,0,0,0,0,0,0,0,3221226782,0,0,0,0,0,0,0,
0,0,0,0,0,0,0,0,0,3221225510,0,0,0,0,0,3221225510,0,3221226718,0,0,0,0,0,0,0,
0,0,0,0,0,0,0,0,0,3221225494,0,0,0,0,0,3221225494,0,0,0,0,0,0,0,0,0,
0,0,0,0,0,2684356121,2684356057,2684355993,2684355929,2684355865,2684355801,0,0,0,2684356121,2684356057,2684355993,2684355929,2684355865,2684355801,0,0,0,0,0,
0,0,0,0,0,2684356122,2684356058,2684355994,2684355930,2684355866,2684355802,0,0,0,2684356122,2684356058,2684355994,2684355930,2684355866,2684355802,0,0,0,0,0,
0,0,0,0,0,2684356123,2684356059,2684355995,2684355931,2684355867,2684355803,0,0,0,2684356123,2684356059,2684355995,2684355931,2684355867,2684355803,0,0,0,0,0,
0,0,0,0,0,2684356124,2684356060,2684355996,2684355932,2684355868,2684355804,0,0,0,2684356124,2684356060,2684355996,2684355932,2684355868,2684355804,0,0,0,0,0,
0,0,0,0,0,2684356125,2684356061,2684355997,2684355933,2684355869,2684355805,0,0,0,2684356125,2684356061,2684355997,2684355933,2684355869,2684355805,0,0,0,0,0,
0,0,0,0,0,2684356126,2684356062,2684355998,2684355934,2684355870,2684355806,0,0,0,2684356126,2684356062,2684355998,2684355934,2684355870,2684355806,0,0,0,0,0,
0,0,0,0,0,0,0,0,0,0,0,0,0,0,0,0,0,0,0,0,0,0,0,0,0,
0,0,0,0,0,0,0,0,0,0,0,0,0,0,0,0,0,0,0,0,0,0,0,0,0,
0,0,0,0,0,0,0,0,0,0,0,0,0,0,0,0,0,0,0,0,0,0,0,0,0,
0,0,0,0,0,0,0,0,0,0,0,0,0,0,0,0,0,0,0,0,0,0,0,0,0,
0,0,0,0,0,0,0,0,0,0,0,0,0,0,0,0,0,0,0,0,0,0,0,0,0,
0,0,0,0,0,0,0,0,0,0,0,0,0,0,0,0,0,0,0,0,0,0,0,0,0,
0,0,0,0,0,0,0,0,0,0,0,0,0,0,0,0,0,0,0,0,0,0,0,0,0,
0,0,0,0,0,0,0,0,0,0,0,0,0,0,0,0,0,0,0,0,0,0,0,0,0,
0,0,0,0,0,0,0,0,0,0,0,0,0,0,0,0,0,0,0,0,0,0,0,0,0,
0,0,0,0,0,0,0,0,0,0,0,0,0,0,0,0,0,0,0,0,0,0,0,0,0,
0,0,0,0,0,0,0,0,0,0,0,0,0,0,0,0,0,0,0,0,0,0,0,0,0,
0,0,0,0,0,0,0,0,0,0,0,0,0,0,0,0,0,0,0,0,0,0,0,0,0,
0,0,0,0,0,0,0,0,0,0,0,0,0,0,0,0,0,0,0,0,0,0,0,0,0,
0,0,0,0,0,0,0,0,0,0,0,0,0,0,0,0,0,0,0,0,0,0,0,0,0,
0,0,0,0,0,0,0,0,0,0,0,0,0,0,0,0,0,0,0,0,0,0,0,0,0,
0,0,0,0,0,0,0,0,0,0,0,0,0,0,0,0,0,0,0,0,0,0,0,0,0,
0,0,0,0,0,0,0,0,0,0,0,0,0,0,0,0,0,0,0,0,0,0,0,0,0,
0,0,0,0,0,0,0,0,0,0,0,0,0,0,0,0,0,0,0,0,0,0,0,0,0,
0,0,0,0,0,0,0,0,0,0,0,0,0,0,0,0,0,0,0,0,0,0,0,0,0,
0,0,0,0,0,0,0,0,0,0,0,0,0,0,0,0,0,0,0,0,0,0,0,0,0,
0,0,0,0,0,0,0,0,0,0,0,0,0,0,0,0,0,0,0,0,0,0,0,0,0,
0,0,0,0,0,0,0,0,0,0,0,0,0,0,0,0,0,0,0,0,0,0,0,0,0,
0,0,0,0,0,0,0,0,0,0,0,0,0,0,0,0,0,0,0,0,0,0,0,0,0,
0,0,0,0,0,0,0,0,0,0,0,0,0,0,0,0,0,0,0,0,0,0,0,0,0,
0,0,0,0,0,0,0,0,0,0,0,0,0,0,0,0,0,0,0,0,0,0,0,0,0,
0,0,0,0,0,0,0,0,0,0,0,0,0,0,0,0,0,0,0,0,0,0,0,0,0,
0,0,0,0,0,0,0,0,0,0,0,0,0,0,0,0,0,0,0,0,0,0,0,0,0,
0,0,0,0,0,0,0,0,0,0,0,0,0,0,0,0,0,0,0,0,0,0,0,0,0,
0,0,0,0,0,0,0,0,0,0,0,0,0,0,0,0,0,0,0,0,0,0,0,0,0,
0,0,0,0,0,0,0,0,0,0,0,0,0,0,0,0,0,0,0,0,0,0,0,0,0,
0,0,0,0,0,0,0,0,0,0,0,0,0,0,0,0,0,0,0,0,0,0,0,0,0,
0,0,0,0,0,0,0,0,0,0,0,0,0,0,0,0,0,0,0,0,0,0,0,0,0,
0,0,0,0,0,0,0,0,0,0,0,0,0,0,0,0,0,0,0,0,0,0,0,0,0,
0,0,0,0,0,0,0,0,0,0,0,0,0,0,0,0,0,0,0,0,0,0,0,0,0,
0,0,0,0,0,0,0,0,0,0,0,0,0,0,0,0,0,0,0,0,0,0,0,0,0,
0,0,0,0,0,0,0,0,0,0,0,0,0,0,0,0,0,0,0,0,0,0,0,0,0,
0,0,0,0,0,0,0,0,0,0,0,0,0,0,0,0,0,0,0,0,0,0,0,0,0,
0,0,0,0,0,0,0,0,0,0,0,0,0,0,0,0,0,0,0,0,0,0,0,0,0,
0,0,0,0,0,0,0,0,0,0,0,0,0,0,0,0,0,0,0,0,0,0,0,0,0,
0,0,0,0,0,0,0,0,0,0,0,0,0,0,0,0,0,0,0,0,0,0,0,0,0
</data>
 </layer>
 <layer id="8" name="Knifes" width="25" height="110">
  <data encoding="csv">
0,0,0,0,0,0,0,0,0,0,0,0,0,0,0,0,0,0,0,0,0,0,0,0,0,
0,0,0,0,0,0,0,0,0,0,0,0,0,0,0,0,0,0,0,0,0,0,0,0,0,
0,0,0,0,0,0,0,0,0,0,0,0,0,0,0,0,0,0,0,0,0,0,0,0,0,
0,0,0,0,0,0,0,0,0,0,0,0,0,0,0,0,0,0,0,0,0,0,0,0,0,
0,0,0,0,0,0,0,0,0,0,0,0,0,0,0,0,0,0,0,0,0,0,0,0,0,
0,0,0,0,0,0,0,0,0,0,0,0,0,0,0,0,0,0,0,0,0,0,0,0,0,
0,0,0,0,0,0,0,0,0,0,0,0,0,0,0,0,0,0,0,0,0,0,0,0,0,
0,0,0,0,0,0,0,0,0,0,0,0,0,0,0,0,0,0,0,0,0,0,0,0,0,
0,0,0,0,0,0,0,0,0,0,0,0,0,0,0,0,0,0,0,0,0,0,0,0,0,
0,0,0,0,0,0,0,0,0,0,0,0,0,0,0,0,0,0,0,0,0,0,0,0,0,
0,0,0,0,0,0,0,0,0,0,0,0,0,0,0,0,0,0,0,0,0,0,0,0,0,
0,0,0,0,0,0,0,0,0,0,0,0,0,0,0,0,0,0,0,0,0,0,0,0,0,
0,0,0,0,0,0,0,0,0,0,0,0,0,0,0,0,0,0,0,0,0,0,0,0,0,
0,0,0,0,0,0,0,0,0,0,0,0,0,0,0,0,0,0,0,0,0,0,0,0,0,
0,0,0,0,0,0,0,0,0,0,0,0,0,0,0,0,0,0,0,0,0,0,0,0,0,
0,0,0,0,0,0,0,0,0,0,0,0,0,0,0,0,0,0,0,0,0,0,0,0,0,
0,0,0,0,0,0,0,0,0,0,0,0,0,0,0,0,0,0,0,0,0,0,0,0,0,
0,0,0,0,0,0,0,0,0,0,0,0,0,0,0,0,0,0,0,0,0,0,0,0,0,
0,0,0,0,0,0,0,0,0,0,0,0,0,0,0,0,0,0,0,0,0,0,0,0,0,
0,0,0,0,0,0,0,0,0,0,0,0,0,0,0,0,0,0,0,0,0,0,0,0,0,
0,0,0,0,0,0,0,0,0,0,0,0,0,0,0,0,0,0,0,0,0,0,0,0,0,
0,0,0,0,0,0,0,0,0,0,0,0,0,0,0,0,0,0,0,0,0,0,0,0,0,
0,0,0,0,0,0,0,0,0,0,0,0,0,0,0,0,0,0,0,0,0,0,0,0,0,
0,0,0,0,0,0,0,0,0,0,0,0,0,0,0,0,0,0,0,0,0,0,0,0,0,
0,0,0,0,0,0,0,0,0,0,0,0,0,0,0,0,0,0,0,0,0,0,0,0,0,
0,0,0,0,0,0,0,0,0,0,0,0,0,0,0,0,0,0,0,0,0,0,0,0,0,
0,0,0,0,0,0,0,0,0,0,0,0,0,0,0,0,0,0,0,0,0,0,0,0,0,
0,0,0,0,0,0,0,0,0,0,0,0,0,0,0,0,0,0,0,0,0,0,0,0,0,
0,0,0,0,0,0,0,0,0,0,0,0,0,0,0,0,0,0,0,0,0,0,0,0,0,
0,0,0,0,0,0,0,0,0,0,0,0,0,0,0,0,0,0,0,0,0,0,0,0,0,
0,0,0,0,0,0,0,0,0,0,0,0,0,0,0,0,0,0,0,0,0,0,0,0,0,
0,0,0,0,0,0,0,0,0,0,0,0,0,0,0,0,0,0,0,0,0,0,0,0,0,
0,0,0,0,0,0,0,0,0,0,0,0,0,0,0,0,0,0,0,0,0,0,0,0,0,
0,0,0,0,0,0,0,0,0,0,0,0,0,0,0,0,0,0,0,0,0,0,0,0,0,
0,0,0,0,0,0,0,0,0,0,0,0,0,0,0,0,0,0,0,0,0,0,0,0,0,
0,0,0,0,0,0,0,0,0,0,0,0,0,0,0,0,0,0,0,0,0,0,0,0,0,
0,0,0,0,0,0,0,0,0,0,0,0,0,0,0,0,0,0,0,0,0,0,0,0,0,
0,0,0,0,0,0,0,0,0,0,0,0,0,0,0,0,0,0,0,0,0,0,0,0,0,
0,0,0,0,0,0,0,0,0,0,0,0,0,0,0,0,0,0,0,0,0,0,0,0,0,
0,0,0,0,0,0,0,0,0,0,0,0,0,0,0,0,0,0,0,0,0,0,0,0,0,
0,0,0,0,0,0,0,0,0,0,0,0,0,0,0,0,0,0,0,0,0,0,0,0,0,
0,0,0,0,0,0,0,0,0,0,2684357568,0,0,2684357568,0,0,0,0,0,0,0,0,0,0,0,
0,0,0,0,0,0,0,0,0,0,0,0,0,0,0,0,0,0,0,0,0,0,0,0,0,
0,0,0,0,0,0,0,0,0,0,0,0,0,0,0,0,0,0,0,0,0,0,0,0,0,
0,0,0,0,0,0,0,0,0,0,0,0,0,0,0,0,0,0,0,0,0,0,0,0,0,
0,0,0,0,0,0,0,0,0,0,0,0,0,0,0,0,0,0,0,0,0,0,0,0,0,
0,0,0,0,0,0,0,0,0,0,0,0,0,0,0,0,0,0,0,0,0,0,0,0,0,
0,0,0,0,0,0,0,0,0,0,0,0,0,0,0,0,0,0,0,0,0,0,0,0,0,
0,0,0,0,0,0,0,0,0,0,0,0,0,0,0,0,0,0,0,0,0,0,0,0,0,
0,0,0,0,0,0,0,0,0,0,0,0,0,0,0,0,0,0,0,0,0,0,0,0,0,
0,0,0,0,0,0,0,0,0,0,0,0,0,0,0,0,0,0,0,0,0,0,0,0,0,
0,0,0,0,0,0,0,0,0,0,0,0,0,0,0,0,0,0,0,0,0,0,0,0,0,
0,0,0,2684357568,0,0,0,0,0,0,0,0,0,0,0,0,0,0,0,0,0,0,0,0,0,
0,0,0,0,2684357568,0,0,0,0,0,0,0,0,0,0,0,0,0,0,0,0,2684357568,0,0,0,
0,0,0,0,0,0,0,0,0,0,0,0,0,0,0,0,0,0,0,0,2684357568,0,0,0,0,
0,0,0,0,0,0,0,0,0,0,0,0,0,0,0,0,0,0,0,0,0,0,0,0,0,
0,0,0,0,0,0,0,0,0,0,0,0,0,0,0,0,0,0,0,0,0,0,0,0,0,
0,0,0,0,0,0,0,0,0,0,0,0,0,0,0,0,0,0,0,0,0,0,0,0,0,
0,0,0,0,0,0,0,0,0,0,0,0,0,0,0,0,0,0,0,0,0,0,0,0,0,
0,0,0,0,0,0,0,0,0,0,0,0,0,0,0,0,0,0,0,0,0,0,0,0,0,
0,0,0,0,0,0,0,0,0,0,0,0,0,0,0,0,0,0,0,0,0,0,0,0,0,
0,0,0,0,0,0,0,0,0,0,0,0,0,0,0,0,0,0,0,0,0,0,0,0,0,
0,0,0,0,0,0,0,0,0,0,0,0,0,0,0,0,0,0,0,0,0,0,0,0,0,
0,0,0,0,0,0,0,0,0,0,0,0,0,0,0,0,0,0,0,0,0,0,0,0,0,
0,0,0,0,0,0,0,0,0,0,0,0,0,0,0,0,0,0,0,0,0,0,0,0,0,
0,0,0,0,0,0,0,0,0,0,0,0,0,0,0,0,0,0,0,0,0,0,0,0,0,
0,0,0,0,0,0,0,0,0,0,0,0,0,0,0,0,0,0,0,0,0,0,0,0,0,
0,0,0,0,0,0,0,0,0,0,0,0,0,0,0,0,0,0,0,0,0,0,0,0,0,
0,0,0,0,0,0,0,0,0,0,0,0,0,0,0,0,0,0,0,0,0,0,0,0,0,
0,0,0,0,0,0,0,0,0,0,0,0,0,0,0,0,0,0,0,0,0,0,0,0,0,
0,0,0,0,0,0,0,0,0,0,0,0,0,0,0,0,0,0,0,0,0,0,0,0,0,
0,0,0,0,0,0,0,0,0,0,0,0,0,0,0,0,0,0,0,0,0,0,0,0,0,
0,0,0,0,0,0,0,0,0,0,0,0,0,0,0,0,0,0,0,0,0,0,0,0,0,
0,0,0,0,0,0,0,0,0,0,0,0,2684357568,0,0,0,0,0,0,0,0,0,0,0,0,
0,0,0,0,0,0,0,0,0,0,0,2684357568,0,2684357568,0,0,0,0,0,0,0,0,0,0,0,
0,0,0,0,0,0,0,0,0,0,0,0,0,0,0,0,0,0,0,0,0,0,0,0,0,
0,0,0,0,0,0,0,0,0,0,0,0,0,0,0,0,0,0,0,0,0,0,0,0,0,
0,0,0,0,0,0,0,0,0,0,0,0,0,0,0,0,0,0,0,0,0,0,0,0,0,
0,0,0,0,0,0,0,0,0,0,0,0,0,0,0,0,0,0,0,0,0,0,0,0,0,
0,0,0,0,0,0,0,0,0,0,0,0,0,0,0,0,0,0,0,0,0,0,0,0,0,
0,0,0,0,0,0,0,0,0,0,0,0,0,0,0,0,0,0,0,0,0,0,0,0,0,
0,0,0,0,0,0,0,0,0,0,0,0,0,0,0,0,0,0,0,0,0,0,0,0,0,
0,0,0,0,0,0,0,0,0,0,0,0,0,0,0,0,0,0,0,0,0,0,0,0,0,
0,0,0,0,0,0,0,0,0,0,0,0,0,0,0,0,0,0,0,0,0,0,0,0,0,
0,0,0,0,0,0,0,0,0,0,0,0,0,0,0,0,0,0,0,0,0,0,0,0,0,
0,0,0,0,0,0,0,0,0,0,0,0,0,0,0,0,0,0,0,0,0,0,0,0,0,
0,0,0,0,0,0,0,0,0,0,0,0,0,0,0,0,0,0,0,0,0,0,0,0,0,
0,0,0,0,0,0,0,0,0,0,0,0,0,0,0,0,0,0,0,0,0,0,0,0,0,
0,0,0,0,0,0,0,0,0,0,0,0,0,0,0,0,0,0,0,0,0,0,0,0,0,
0,0,0,0,0,0,0,0,0,0,0,0,0,0,0,0,0,0,0,0,0,0,0,0,0,
0,0,2684357568,0,0,2684357568,0,0,0,0,0,0,0,0,0,0,0,0,0,2684357568,0,0,2684357568,0,0,
0,0,0,0,0,0,0,0,0,0,0,0,0,0,0,0,0,0,0,0,0,0,0,0,0,
0,0,0,0,0,0,0,0,0,0,0,0,0,0,0,0,0,0,0,0,0,0,0,0,0,
0,0,0,0,0,0,0,0,0,0,0,0,0,0,0,0,0,0,0,0,0,0,0,0,0,
0,0,0,0,0,0,0,0,0,0,0,0,0,0,0,0,0,0,0,0,0,0,0,0,0,
0,0,0,0,0,0,0,0,0,0,0,0,0,0,0,0,0,0,0,0,0,0,0,0,0,
0,0,0,0,0,0,0,0,0,0,0,0,0,0,0,0,0,0,0,0,0,0,0,0,0,
0,0,0,0,0,0,0,0,0,0,0,0,0,0,0,0,0,0,0,0,0,0,0,0,0,
0,0,0,0,0,0,0,0,0,0,0,0,0,0,0,0,0,0,0,0,0,0,0,0,0,
0,0,0,0,0,0,0,0,0,0,0,0,0,0,0,0,0,0,0,0,0,0,0,0,0,
0,0,0,0,0,0,0,0,0,0,0,0,0,0,0,0,0,0,0,0,0,0,0,0,0,
0,0,0,0,0,0,0,0,0,0,0,0,0,0,0,0,0,0,0,0,0,0,0,0,0,
0,0,0,0,0,0,0,0,0,0,0,0,0,0,0,0,0,0,0,0,0,0,0,0,0,
0,0,0,0,0,0,0,0,0,0,0,0,0,0,0,0,0,0,0,0,0,0,0,0,0,
0,0,0,0,0,0,0,0,0,0,0,0,0,0,0,0,0,0,0,0,0,0,0,0,0,
0,0,0,0,0,0,0,0,0,0,0,0,0,0,0,0,0,0,0,0,0,0,0,0,0,
0,0,0,0,0,0,0,0,0,0,0,0,0,0,0,0,0,0,0,0,0,0,0,0,0,
0,0,0,0,0,0,0,0,0,0,0,0,0,0,0,0,0,0,0,0,0,0,0,0,0,
0,0,0,0,0,0,0,0,0,0,0,0,0,0,0,0,0,0,0,0,0,0,0,0,0,
0,0,0,0,0,0,0,0,0,0,0,0,0,0,0,0,0,0,0,0,0,0,0,0,0
</data>
 </layer>
 <layer id="9" name="Enemy" width="25" height="110">
  <data encoding="csv">
0,0,0,0,0,0,0,0,0,0,0,0,0,0,0,0,0,0,0,0,0,0,0,0,0,
0,0,0,0,0,0,0,0,0,0,0,0,0,0,0,0,0,0,0,0,0,0,0,0,0,
0,0,0,0,0,0,0,0,0,0,0,0,0,0,0,0,0,0,0,0,0,0,0,0,0,
0,0,0,0,0,0,0,0,0,0,0,0,0,0,0,0,0,0,0,0,0,0,0,0,0,
0,0,0,0,0,0,0,0,0,0,0,0,0,0,0,0,0,0,0,0,0,0,0,0,0,
0,0,2147483939,2147483938,0,0,0,0,0,0,0,0,0,0,0,0,0,0,0,0,0,0,0,0,0,
0,0,2147483970,2147483969,0,0,0,0,0,0,0,0,0,0,0,0,0,0,0,0,0,0,0,0,0,
0,0,2147484001,2147484000,0,0,0,0,0,0,0,0,0,0,0,0,0,0,0,0,0,0,0,0,0,
0,0,2147484032,2147484031,0,0,0,0,0,0,0,0,0,0,0,0,0,0,0,0,0,0,0,0,0,
0,0,0,0,0,0,0,0,0,0,0,0,0,0,0,0,0,0,0,0,0,0,0,0,0,
0,0,0,0,0,0,0,0,0,0,0,0,0,0,0,0,0,0,0,0,0,0,0,0,0,
0,0,0,0,0,0,0,0,0,0,0,0,0,0,0,0,0,0,0,0,0,0,0,0,0,
0,0,0,0,0,0,0,0,0,0,0,0,0,0,0,0,0,0,0,0,0,0,0,0,0,
0,0,0,0,0,0,0,0,0,0,0,0,0,0,0,0,0,0,0,0,0,0,0,0,0,
0,0,0,0,0,0,0,0,0,0,0,0,0,0,0,0,0,0,0,0,0,0,0,0,0,
0,0,0,0,0,0,0,0,0,0,0,0,0,0,0,0,0,0,0,0,0,0,0,0,0,
0,0,0,0,0,0,0,0,0,0,0,0,0,0,0,0,0,0,0,0,0,0,0,0,0,
0,0,0,0,0,0,0,0,0,0,0,0,0,0,0,0,0,0,0,0,0,0,0,0,0,
0,0,0,0,0,0,0,0,0,0,0,0,0,0,0,0,0,0,0,0,0,0,0,0,0,
0,0,0,0,0,0,0,0,0,0,0,0,0,0,0,0,0,0,0,0,0,0,0,0,0,
0,0,0,0,0,0,0,0,0,0,0,0,2147483939,2147483938,0,0,0,0,0,0,0,0,0,0,0,
0,0,0,0,0,0,0,0,0,0,0,3758096768,2147483970,2147483969,0,0,0,0,0,0,0,0,0,0,0,
0,0,0,0,0,0,0,0,0,0,0,0,2147484001,2147484000,0,0,0,0,0,0,0,0,0,0,0,
0,0,0,0,0,0,0,0,0,0,0,0,2147484032,2147484031,0,0,0,0,0,0,0,0,0,0,0,
0,0,0,0,0,0,0,0,0,0,0,0,0,0,0,0,0,0,0,0,0,0,0,0,0,
0,0,0,0,0,0,0,0,0,0,0,0,0,0,0,0,0,0,0,0,0,0,0,0,0,
0,0,0,0,0,0,0,0,0,0,0,0,0,0,0,0,0,0,0,0,0,0,0,0,0,
0,0,0,0,0,0,0,0,0,0,0,0,0,0,0,0,0,0,0,0,0,0,0,0,0,
0,0,0,0,0,0,0,0,0,0,0,0,0,0,0,0,0,0,0,0,0,0,0,0,0,
0,0,0,0,0,0,0,0,0,0,0,0,0,0,0,0,0,0,0,0,0,0,0,0,0,
0,0,0,0,0,0,0,0,0,0,0,0,0,0,0,0,0,0,0,0,0,0,0,0,0,
0,0,0,0,0,0,0,0,0,0,0,0,0,0,0,0,0,0,0,0,0,0,0,0,0,
0,0,0,0,0,0,0,0,0,0,0,0,0,0,0,0,0,0,0,0,0,0,0,0,0,
0,0,0,0,0,0,0,0,0,0,0,0,0,0,0,0,0,0,0,0,0,0,0,0,0,
0,0,0,0,0,0,0,0,0,0,0,0,0,0,0,0,0,0,0,0,0,0,0,0,0,
0,0,0,0,0,0,0,0,0,0,0,0,0,0,0,0,0,0,0,0,0,0,0,0,0,
0,0,0,0,0,0,0,0,0,0,0,0,0,0,0,0,0,0,0,0,0,0,0,0,0,
0,0,0,0,0,0,0,0,0,0,0,0,0,0,0,0,0,0,0,0,0,0,0,0,0,
0,0,3758096768,2147483939,2147483938,0,0,0,0,0,0,0,0,0,0,0,0,0,0,3758096768,2147483939,2147483938,0,0,0,
0,0,0,2147483970,2147483969,0,0,0,0,0,0,0,0,0,0,0,0,0,0,0,2147483970,2147483969,0,0,0,
0,0,0,2147484001,2147484000,0,0,0,0,0,0,0,0,0,0,0,0,0,0,0,2147484001,2147484000,0,0,0,
0,0,0,2147484032,2147484031,0,0,0,0,0,0,0,0,0,0,0,0,0,0,0,2147484032,2147484031,0,0,0,
0,0,0,0,0,0,0,0,0,0,0,0,0,0,0,0,0,0,0,0,0,0,0,0,0,
0,0,0,0,0,0,0,0,0,0,0,0,0,0,0,0,0,0,0,0,0,0,0,0,0,
0,0,0,0,0,0,0,0,0,0,0,0,0,0,0,0,0,0,0,0,0,0,0,0,0,
0,0,0,0,0,0,0,0,0,0,0,0,0,0,0,0,0,0,0,0,0,0,0,0,0,
0,0,0,0,0,0,0,0,0,0,0,0,0,0,0,0,0,0,0,0,0,0,0,0,0,
0,0,0,0,0,0,0,0,0,0,0,0,0,0,0,0,0,0,0,0,0,0,0,0,0,
0,0,0,0,0,0,0,0,0,0,0,0,0,0,0,0,0,0,0,0,0,0,0,0,0,
0,0,0,0,0,0,0,0,0,0,0,0,0,0,0,0,0,0,0,0,0,0,0,0,0,
0,0,0,0,0,0,0,0,0,0,0,0,0,0,0,0,0,0,0,0,0,0,0,0,0,
0,0,0,0,0,0,0,0,0,0,0,0,0,0,0,0,0,0,0,0,0,0,0,0,0,
0,0,0,0,0,0,0,0,0,0,0,0,0,0,0,0,0,0,0,0,0,0,0,0,0,
0,0,0,0,0,0,0,0,0,0,0,2147483939,2147483938,0,0,0,0,0,0,0,0,0,0,0,0,
0,0,0,0,0,0,0,0,0,0,0,2147483970,2147483969,0,0,0,0,0,0,0,0,0,0,0,0,
0,0,0,0,0,0,0,0,0,0,0,2147484001,2147484000,0,0,0,0,0,0,0,0,0,0,0,0,
0,0,0,0,0,0,0,0,0,0,0,2147484032,2147484031,0,0,0,0,0,0,0,0,0,0,0,0,
0,0,0,0,0,0,0,0,0,0,0,0,0,0,0,0,0,0,0,0,0,0,0,0,0,
0,0,0,0,0,0,0,0,0,0,0,0,0,0,0,0,0,0,0,0,0,0,0,0,0,
0,0,0,0,0,0,0,0,0,0,0,0,0,0,0,0,0,0,0,0,0,0,0,0,0,
0,0,0,0,0,0,0,0,0,0,0,0,0,0,0,0,0,0,0,0,0,0,0,0,0,
0,0,0,0,0,0,0,0,0,0,0,0,0,0,0,0,0,0,0,0,0,0,0,0,0,
0,0,0,0,0,0,0,0,0,0,0,0,0,0,0,0,0,0,0,0,0,0,0,0,0,
0,0,0,0,0,0,0,0,0,0,0,0,0,0,0,0,0,0,0,0,0,0,0,0,0,
0,0,0,0,0,0,0,0,0,0,0,0,0,0,0,0,0,0,0,0,0,0,0,0,0,
0,0,0,0,0,0,0,0,0,0,0,0,0,0,0,0,0,0,0,0,0,0,0,0,0,
0,0,0,0,0,0,0,0,0,0,0,0,0,0,0,0,0,0,0,0,0,0,0,0,0,
0,0,0,0,0,0,0,0,0,0,0,0,0,0,0,0,0,0,0,0,0,0,0,0,0,
0,0,0,0,0,0,0,0,0,0,0,0,0,0,0,0,0,0,0,0,0,0,0,0,0,
0,0,0,0,0,0,0,0,0,0,0,0,0,0,0,0,0,0,0,0,0,0,0,0,0,
0,0,0,0,0,0,0,0,0,0,0,0,0,0,0,0,0,0,0,0,0,0,0,0,0,
0,0,0,0,0,0,0,0,0,0,0,0,0,0,0,0,0,0,0,0,0,0,0,0,0,
0,0,0,0,0,0,0,0,0,0,0,0,0,0,0,0,0,0,0,0,0,0,0,0,0,
0,0,0,0,0,0,0,0,0,0,0,0,0,0,0,0,0,0,0,0,0,0,0,0,0,
0,0,0,0,0,0,0,0,0,0,0,0,0,0,0,0,0,0,0,0,0,0,0,0,0,
0,0,0,0,0,0,0,0,0,0,0,0,0,0,0,0,0,0,0,0,0,0,0,0,0,
0,0,0,0,0,0,0,0,0,0,0,0,0,0,0,0,0,0,0,0,0,0,0,0,0,
0,0,0,0,0,0,0,0,0,0,0,0,0,0,0,0,0,0,0,0,0,0,0,0,0,
0,0,0,0,0,0,0,0,0,0,0,0,0,0,0,0,0,0,0,0,0,0,0,0,0,
0,0,0,0,0,0,0,0,0,0,0,0,0,0,0,0,0,0,0,0,0,0,0,0,0,
0,0,0,0,0,0,0,0,0,0,0,0,0,0,0,0,0,0,0,0,0,0,0,0,0,
0,0,0,0,0,0,0,0,0,0,0,0,0,0,0,0,0,0,0,0,0,0,0,0,0,
0,0,0,0,0,0,0,0,0,0,0,0,0,0,0,0,0,0,0,0,0,0,0,0,0,
0,0,0,0,0,0,0,0,0,0,0,0,0,0,0,0,0,0,0,0,0,0,0,0,0,
0,0,0,0,0,0,0,0,0,0,0,0,0,0,0,0,0,0,0,0,0,0,0,0,0,
0,0,0,2147483939,2147483938,0,0,0,0,0,0,0,0,0,0,0,0,0,0,0,2147483939,2147483938,0,0,0,
0,0,0,2147483970,2147483969,0,0,0,0,0,0,0,0,0,0,0,0,0,0,0,2147483970,2147483969,0,0,0,
0,0,0,2147484001,2147484000,0,0,0,0,0,0,0,0,0,0,0,0,0,0,0,2147484001,2147484000,0,0,0,
0,0,0,2147484032,2147484031,0,0,0,0,0,0,0,0,0,0,0,0,0,0,0,2147484032,2147484031,0,0,0,
0,0,0,0,0,0,0,0,0,0,0,0,0,0,0,0,0,0,0,0,0,0,0,0,0,
0,0,0,0,0,0,0,0,0,0,0,0,0,0,0,0,0,0,0,0,0,0,0,0,0,
0,0,0,0,0,0,0,0,0,0,0,0,0,0,0,0,0,0,0,0,0,0,0,0,0,
0,0,0,0,0,0,0,0,0,0,0,0,0,0,0,0,0,0,0,0,0,0,0,0,0,
0,0,0,0,0,0,0,0,0,0,0,0,0,0,0,0,0,0,0,0,0,0,0,0,0,
0,0,0,0,0,0,0,0,0,0,0,0,0,0,0,0,0,0,0,0,0,0,0,0,0,
0,0,0,0,0,0,0,0,0,0,0,0,0,0,0,0,0,0,0,0,0,0,0,0,0,
0,0,0,0,0,0,0,0,0,0,0,0,0,0,0,0,0,0,0,0,0,0,0,0,0,
0,0,0,0,0,0,0,0,0,0,0,0,0,0,0,0,0,0,0,0,0,0,0,0,0,
0,0,0,0,0,0,0,0,0,0,0,0,0,0,0,0,0,0,0,0,0,0,0,0,0,
0,0,0,0,0,0,0,0,0,0,3758096768,0,0,0,0,0,0,0,0,0,0,0,0,0,0,
0,0,0,0,0,0,0,0,0,0,0,0,0,0,0,0,0,0,0,0,0,0,0,0,0,
0,0,0,0,0,0,0,0,0,0,0,0,0,0,0,0,0,0,0,0,0,0,0,0,0,
0,0,0,0,0,0,0,0,0,0,0,0,0,0,0,0,0,0,0,0,0,0,0,0,0,
0,0,0,0,0,0,0,0,0,0,0,0,0,0,0,0,0,0,0,0,0,0,0,0,0,
0,0,0,0,0,0,0,0,0,0,0,0,0,0,0,0,0,0,0,0,0,0,0,0,0,
0,0,0,0,0,0,0,0,0,0,0,0,0,0,0,0,0,0,0,0,0,0,0,0,0,
0,0,0,0,0,0,0,0,0,0,0,0,0,0,0,0,0,0,0,3758096768,0,0,0,0,0,
0,0,0,0,0,0,0,0,0,0,0,0,0,0,0,0,0,0,0,0,0,0,0,0,0,
0,0,0,0,0,0,0,0,0,0,0,0,0,0,0,0,0,0,0,0,0,0,0,0,0,
0,0,0,0,0,0,0,0,0,0,0,0,0,0,0,0,0,0,0,0,0,0,0,0,0
</data>
 </layer>
 <layer id="10" name="Key" width="25" height="110">
  <data encoding="csv">
0,0,0,0,0,0,0,0,0,0,0,0,0,0,0,0,0,0,0,0,0,0,0,0,0,
0,0,0,0,0,0,0,0,0,0,0,0,0,0,0,0,0,0,0,0,0,0,0,0,0,
0,0,0,0,0,0,0,0,0,0,0,0,0,0,0,0,0,0,0,0,0,0,0,0,0,
0,0,0,0,0,0,0,0,0,0,0,0,0,0,0,0,0,0,0,0,0,0,0,0,0,
0,0,0,0,0,0,0,0,0,0,0,0,0,0,0,0,0,0,0,0,0,0,0,0,0,
0,0,0,0,0,0,0,0,0,0,0,0,0,0,0,0,0,0,0,0,0,0,0,0,0,
0,0,0,0,0,0,0,0,0,0,0,0,0,0,0,0,0,0,0,0,0,0,0,0,0,
0,0,0,0,0,0,0,0,0,0,0,0,0,0,0,0,0,0,0,0,0,0,0,0,0,
0,0,0,0,0,0,0,0,0,0,0,0,0,0,0,0,0,0,0,0,0,0,0,0,0,
0,0,0,0,0,0,0,0,0,0,0,0,0,0,0,0,0,0,0,0,0,0,0,0,0,
0,0,0,0,0,0,0,0,0,0,0,0,0,0,0,0,0,0,0,0,0,0,0,0,0,
0,0,0,0,0,0,0,0,0,0,0,0,0,0,0,0,0,0,0,0,0,0,0,0,0,
0,0,0,0,0,0,0,0,0,0,0,0,0,0,0,0,0,0,0,0,0,0,0,0,0,
0,0,0,0,0,0,0,0,0,0,0,0,0,0,0,0,0,0,0,0,0,0,0,0,0,
0,0,0,0,0,0,0,0,0,0,0,0,0,0,0,0,0,0,0,0,0,0,0,0,0,
0,0,0,0,0,0,0,0,0,0,0,0,0,0,0,0,0,0,0,0,0,0,0,0,0,
0,0,0,0,0,0,0,0,0,0,0,0,0,0,0,0,0,0,0,0,0,0,0,0,0,
0,0,0,0,0,0,0,0,0,0,0,0,0,0,0,0,0,0,0,0,0,0,0,0,0,
0,0,0,0,0,0,0,0,0,0,0,0,0,0,0,0,0,0,0,0,0,0,0,0,0,
0,0,0,0,0,0,0,0,0,0,0,0,0,0,0,0,0,0,0,0,0,0,0,0,0,
0,0,0,0,0,0,0,0,0,0,0,0,0,0,0,0,0,0,0,0,0,0,0,0,0,
0,0,0,0,0,0,0,0,0,0,0,0,0,0,0,0,0,0,0,0,0,0,0,0,0,
0,0,0,0,0,0,0,0,0,0,0,0,0,0,0,0,0,0,0,0,0,0,0,0,0,
0,0,0,0,0,0,0,0,0,0,0,0,0,0,0,0,0,0,0,0,0,0,0,0,0,
0,0,0,0,0,0,0,0,0,0,0,0,0,0,0,0,0,0,0,0,0,0,0,0,0,
0,0,0,0,0,0,0,0,0,0,0,0,0,0,0,0,0,0,0,0,0,0,0,0,0,
0,0,0,0,0,0,0,0,0,0,0,0,0,0,0,0,0,0,0,0,0,0,0,0,0,
0,0,0,0,0,0,0,0,0,0,0,0,0,0,0,0,0,0,0,0,0,0,0,0,0,
0,0,0,0,0,0,0,0,0,0,0,0,0,0,0,0,0,0,0,0,0,0,0,0,0,
0,0,0,0,0,0,0,0,0,0,0,0,0,0,0,0,0,0,0,0,0,0,0,0,0,
0,0,0,0,0,0,0,0,0,0,0,0,0,0,0,0,0,0,0,0,0,0,0,0,0,
0,0,0,0,0,0,0,0,0,0,0,0,0,0,0,0,0,0,0,0,0,0,0,0,0,
0,0,0,0,0,0,0,0,0,0,0,0,0,0,0,0,0,0,0,0,0,0,0,0,0,
0,0,0,0,0,0,0,0,0,0,0,0,0,0,0,0,0,0,0,0,0,0,0,0,0,
0,0,0,0,0,0,0,0,0,0,0,0,0,0,0,0,0,0,0,0,0,0,0,0,0,
0,0,0,0,0,0,0,0,0,0,0,0,0,0,0,0,0,0,0,0,0,0,0,0,0,
0,0,0,0,0,0,0,0,0,0,0,0,0,0,0,0,0,0,0,0,0,0,0,0,0,
0,0,0,0,0,0,0,0,0,0,0,0,0,0,0,0,0,0,0,0,0,0,0,0,0,
0,0,0,0,0,0,0,0,0,0,0,0,0,0,0,0,0,0,0,0,0,0,0,0,0,
0,0,0,0,0,0,0,0,0,0,0,0,0,0,0,0,0,0,0,0,0,0,0,0,0,
0,0,0,0,0,0,0,0,0,0,0,0,0,0,0,0,0,0,0,0,0,0,0,0,0,
0,0,0,0,0,0,0,0,0,0,0,3013,0,0,0,0,0,0,0,0,0,0,0,0,0,
0,0,0,0,0,0,0,0,0,0,0,0,0,0,0,0,0,0,0,0,0,0,0,0,0,
0,0,0,0,0,0,0,0,0,0,0,0,0,0,0,0,0,0,0,0,0,0,0,0,0,
0,0,0,0,0,0,0,0,0,0,0,0,0,0,0,0,0,0,0,0,0,0,0,0,0,
0,0,0,0,0,0,0,0,0,0,0,0,0,0,0,0,0,0,0,0,0,0,0,0,0,
0,0,0,0,0,0,0,0,0,0,0,0,0,0,0,0,0,0,0,0,0,0,0,0,0,
0,0,0,0,0,0,0,0,0,0,0,0,0,0,0,0,0,0,0,0,0,0,0,0,0,
0,0,0,0,0,0,0,0,0,0,0,0,0,0,0,0,0,0,0,0,0,0,0,0,0,
0,0,0,0,0,0,0,0,0,0,0,0,0,0,0,0,0,0,0,0,0,0,0,0,0,
0,0,0,0,0,0,0,0,0,0,0,0,0,0,0,0,0,0,0,0,0,0,0,0,0,
0,0,0,0,0,0,0,0,0,0,0,0,0,0,0,0,0,0,0,0,0,0,0,0,0,
0,0,0,0,0,0,0,0,0,0,0,0,0,0,0,0,0,0,0,0,0,0,0,0,0,
0,0,0,0,0,0,0,0,0,0,0,0,0,0,0,0,0,0,0,0,0,0,0,0,0,
0,0,0,0,0,0,0,0,0,0,0,0,0,0,0,0,0,0,0,0,0,0,0,0,0,
0,0,0,0,0,0,0,0,0,0,0,0,0,0,0,0,0,0,0,0,0,0,0,0,0,
0,0,0,0,0,0,0,0,0,0,0,0,0,0,0,0,0,0,0,0,0,0,0,0,0,
0,0,0,0,0,0,0,0,0,0,0,0,0,0,0,0,0,0,0,0,0,0,0,0,0,
0,0,0,0,0,0,0,0,0,0,0,0,0,0,0,0,0,0,0,0,0,0,0,0,0,
0,0,0,0,0,0,0,0,0,0,0,0,0,0,0,0,0,0,0,0,0,0,0,0,0,
0,0,0,0,0,0,0,0,0,0,0,0,0,0,0,0,0,0,0,0,0,0,0,0,0,
0,0,0,0,0,0,0,0,0,0,0,0,0,0,0,0,0,0,0,0,0,0,0,0,0,
0,0,0,0,0,0,0,0,0,0,0,0,0,0,0,0,0,0,0,0,0,0,0,0,0,
0,0,0,0,0,0,0,0,0,0,0,0,0,0,0,0,0,0,0,0,0,0,0,0,0,
0,0,0,0,0,0,0,0,0,0,0,0,0,0,0,0,0,0,0,0,0,0,0,0,0,
0,0,0,0,0,0,0,0,0,0,0,0,0,0,0,0,0,0,0,0,0,0,0,0,0,
0,0,0,0,0,0,0,0,0,0,0,0,0,0,0,0,0,0,0,0,0,0,0,0,0,
0,0,0,0,0,0,0,0,0,0,0,0,0,0,0,0,0,0,0,0,0,0,0,0,0,
0,0,0,0,0,0,0,0,0,0,0,0,0,0,0,0,0,0,0,0,0,0,0,0,0,
0,0,0,0,0,0,0,0,0,0,0,0,0,0,0,0,0,0,0,0,0,0,0,0,0,
0,0,0,0,0,0,0,0,0,0,0,0,0,0,0,0,0,0,0,0,0,0,0,0,0,
0,0,0,0,0,0,0,0,0,0,0,0,0,0,0,0,0,0,0,0,0,0,0,0,0,
0,0,0,0,0,0,0,0,0,0,0,0,0,0,0,0,0,0,0,0,0,0,0,0,0,
0,0,0,0,0,0,0,0,0,0,0,0,0,0,0,0,0,0,0,0,0,0,0,0,0,
0,0,0,0,0,0,0,0,0,0,0,0,0,0,0,0,0,0,0,0,0,0,0,0,0,
0,0,0,0,0,0,0,0,0,0,0,0,0,0,0,0,0,0,0,0,0,0,0,0,0,
0,0,0,0,0,0,0,0,0,0,0,0,0,0,0,0,0,0,0,0,0,0,0,0,0,
0,0,0,0,0,0,0,0,0,0,0,0,0,0,0,0,0,0,0,0,0,0,0,0,0,
0,0,0,0,0,0,0,0,0,0,0,0,0,0,0,0,0,0,0,0,0,0,0,0,0,
0,0,0,0,0,0,0,0,0,0,0,0,0,0,0,0,0,0,0,0,0,0,0,0,0,
0,0,0,0,0,0,0,0,0,0,0,0,0,0,0,0,0,0,0,0,0,0,0,0,0,
0,0,0,0,0,0,0,0,0,0,0,0,0,0,0,0,0,0,0,0,0,0,0,0,0,
0,0,0,0,0,0,0,0,0,0,0,0,0,0,0,0,0,0,0,0,0,0,0,0,0,
0,0,0,0,0,0,0,0,0,0,0,0,0,0,0,0,0,0,0,0,0,0,0,0,0,
0,0,0,0,0,0,0,0,0,0,0,0,0,0,0,0,0,0,0,0,0,0,0,0,0,
0,0,0,0,0,0,0,0,0,0,0,0,0,0,0,0,0,0,0,0,0,0,0,0,0,
0,0,0,0,0,0,0,0,0,0,0,0,0,0,0,0,0,0,0,0,0,0,0,0,0,
0,0,0,0,0,0,0,0,0,0,0,0,0,0,0,0,0,0,0,0,0,0,0,0,0,
0,0,0,0,0,0,0,0,0,0,0,0,0,0,0,0,0,0,0,0,0,0,0,0,0,
0,0,0,0,0,0,0,0,0,0,0,0,0,0,0,0,0,0,0,0,0,0,0,0,0,
0,0,0,0,0,0,0,0,0,0,0,0,0,0,0,0,0,0,0,0,0,0,0,0,0,
0,0,0,0,0,0,0,0,0,0,0,0,0,0,0,0,0,0,0,0,0,0,0,0,0,
0,0,0,0,0,0,0,0,0,0,0,0,0,0,0,0,0,0,0,0,0,0,0,0,0,
0,0,0,0,0,0,0,0,0,0,0,0,0,0,0,0,0,0,0,0,0,0,0,0,0,
0,0,0,0,0,0,0,0,0,0,0,0,0,0,0,0,0,0,0,0,0,0,0,0,0,
0,0,0,0,0,0,0,0,0,0,0,0,0,0,0,0,0,0,0,0,0,0,0,0,0,
0,0,0,0,0,0,0,0,0,0,0,0,0,0,0,0,0,0,0,0,0,0,0,0,0,
0,0,0,0,0,0,0,0,0,0,0,0,0,0,0,0,0,0,0,0,0,0,0,0,0,
0,0,0,0,0,0,0,0,0,0,0,0,0,0,0,0,0,0,0,0,0,0,0,0,0,
0,0,0,0,0,0,0,0,0,0,0,0,0,0,0,0,0,0,0,0,0,0,0,0,0,
0,0,0,0,0,0,0,0,0,0,0,0,0,0,0,0,0,0,0,0,0,0,0,0,0,
0,0,0,0,0,0,0,0,0,0,0,0,0,0,0,0,0,0,0,0,0,0,0,0,0,
0,0,0,0,0,0,0,0,0,0,0,0,0,0,0,0,0,0,0,0,0,0,0,0,0,
0,0,0,0,0,0,0,0,0,0,0,0,0,0,0,0,0,0,0,0,0,0,0,0,0,
0,0,0,0,0,0,0,0,0,0,0,0,0,0,0,0,0,0,0,0,0,0,0,0,0,
0,0,0,0,0,0,0,0,0,0,0,0,0,0,0,0,0,0,0,0,0,0,0,0,0,
0,0,0,0,0,0,0,0,0,0,0,0,0,0,0,0,0,0,0,0,0,0,0,0,0,
0,0,0,0,0,0,0,0,0,0,0,0,0,0,0,0,0,0,0,0,0,0,0,0,0,
0,0,0,0,0,0,0,0,0,0,0,0,0,0,0,0,0,0,0,0,0,0,0,0,0,
0,0,0,0,0,0,0,0,0,0,0,0,0,0,0,0,0,0,0,0,0,0,0,0,0
</data>
 </layer>
 <layer id="11" name="Exit" width="25" height="110">
  <data encoding="csv">
0,0,0,0,0,0,0,0,0,0,0,0,0,0,0,0,0,0,0,0,0,0,0,0,0,
0,0,0,0,0,0,0,0,0,0,0,0,0,0,0,0,0,0,0,0,0,0,0,0,0,
0,0,0,0,0,0,0,0,0,0,0,0,0,0,0,0,0,0,0,0,0,0,0,0,0,
0,0,0,0,0,0,0,0,0,0,0,0,0,0,0,0,0,0,0,0,0,0,0,0,0,
0,0,0,0,0,0,0,0,0,0,0,0,0,0,0,0,0,0,0,0,0,0,0,0,0,
0,0,0,0,0,0,0,0,0,0,0,0,627,628,0,0,0,0,0,0,0,0,0,0,0,
0,0,0,0,0,0,0,0,0,0,0,0,691,692,0,0,0,0,0,0,0,0,0,0,0,
0,0,0,0,0,0,0,0,0,0,0,0,755,756,0,0,0,0,0,0,0,0,0,0,0,
0,0,0,0,0,0,0,0,0,0,0,0,819,820,0,0,0,0,0,0,0,0,0,0,0,
0,0,0,0,0,0,0,0,0,0,0,0,1156,1157,0,0,0,0,0,0,0,0,0,0,0,
0,0,0,0,0,0,0,0,0,0,0,0,0,0,0,0,0,0,0,0,0,0,0,0,0,
0,0,0,0,0,0,0,0,0,0,0,0,0,0,0,0,0,0,0,0,0,0,0,0,0,
0,0,0,0,0,0,0,0,0,0,0,0,0,0,0,0,0,0,0,0,0,0,0,0,0,
0,0,0,0,0,0,0,0,0,0,0,0,0,0,0,0,0,0,0,0,0,0,0,0,0,
0,0,0,0,0,0,0,0,0,0,0,0,0,0,0,0,0,0,0,0,0,0,0,0,0,
0,0,0,0,0,0,0,0,0,0,0,0,0,0,0,0,0,0,0,0,0,0,0,0,0,
0,0,0,0,0,0,0,0,0,0,0,0,0,0,0,0,0,0,0,0,0,0,0,0,0,
0,0,0,0,0,0,0,0,0,0,0,0,0,0,0,0,0,0,0,0,0,0,0,0,0,
0,0,0,0,0,0,0,0,0,0,0,0,0,0,0,0,0,0,0,0,0,0,0,0,0,
0,0,0,0,0,0,0,0,0,0,0,0,0,0,0,0,0,0,0,0,0,0,0,0,0,
0,0,0,0,0,0,0,0,0,0,0,0,0,0,0,0,0,0,0,0,0,0,0,0,0,
0,0,0,0,0,0,0,0,0,0,0,0,0,0,0,0,0,0,0,0,0,0,0,0,0,
0,0,0,0,0,0,0,0,0,0,0,0,0,0,0,0,0,0,0,0,0,0,0,0,0,
0,0,0,0,0,0,0,0,0,0,0,0,0,0,0,0,0,0,0,0,0,0,0,0,0,
0,0,0,0,0,0,0,0,0,0,0,0,0,0,0,0,0,0,0,0,0,0,0,0,0,
0,0,0,0,0,0,0,0,0,0,0,0,0,0,0,0,0,0,0,0,0,0,0,0,0,
0,0,0,0,0,0,0,0,0,0,0,0,0,0,0,0,0,0,0,0,0,0,0,0,0,
0,0,0,0,0,0,0,0,0,0,0,0,0,0,0,0,0,0,0,0,0,0,0,0,0,
0,0,0,0,0,0,0,0,0,0,0,0,0,0,0,0,0,0,0,0,0,0,0,0,0,
0,0,0,0,0,0,0,0,0,0,0,0,0,0,0,0,0,0,0,0,0,0,0,0,0,
0,0,0,0,0,0,0,0,0,0,0,0,0,0,0,0,0,0,0,0,0,0,0,0,0,
0,0,0,0,0,0,0,0,0,0,0,0,0,0,0,0,0,0,0,0,0,0,0,0,0,
0,0,0,0,0,0,0,0,0,0,0,0,0,0,0,0,0,0,0,0,0,0,0,0,0,
0,0,0,0,0,0,0,0,0,0,0,0,0,0,0,0,0,0,0,0,0,0,0,0,0,
0,0,0,0,0,0,0,0,0,0,0,0,0,0,0,0,0,0,0,0,0,0,0,0,0,
0,0,0,0,0,0,0,0,0,0,0,0,0,0,0,0,0,0,0,0,0,0,0,0,0,
0,0,0,0,0,0,0,0,0,0,0,0,0,0,0,0,0,0,0,0,0,0,0,0,0,
0,0,0,0,0,0,0,0,0,0,0,0,0,0,0,0,0,0,0,0,0,0,0,0,0,
0,0,0,0,0,0,0,0,0,0,0,0,0,0,0,0,0,0,0,0,0,0,0,0,0,
0,0,0,0,0,0,0,0,0,0,0,0,0,0,0,0,0,0,0,0,0,0,0,0,0,
0,0,0,0,0,0,0,0,0,0,0,0,0,0,0,0,0,0,0,0,0,0,0,0,0,
0,0,0,0,0,0,0,0,0,0,0,0,0,0,0,0,0,0,0,0,0,0,0,0,0,
0,0,0,0,0,0,0,0,0,0,0,0,0,0,0,0,0,0,0,0,0,0,0,0,0,
0,0,0,0,0,0,0,0,0,0,0,0,0,0,0,0,0,0,0,0,0,0,0,0,0,
0,0,0,0,0,0,0,0,0,0,0,0,0,0,0,0,0,0,0,0,0,0,0,0,0,
0,0,0,0,0,0,0,0,0,0,0,0,0,0,0,0,0,0,0,0,0,0,0,0,0,
0,0,0,0,0,0,0,0,0,0,0,0,0,0,0,0,0,0,0,0,0,0,0,0,0,
0,0,0,0,0,0,0,0,0,0,0,0,0,0,0,0,0,0,0,0,0,0,0,0,0,
0,0,0,0,0,0,0,0,0,0,0,0,0,0,0,0,0,0,0,0,0,0,0,0,0,
0,0,0,0,0,0,0,0,0,0,0,0,0,0,0,0,0,0,0,0,0,0,0,0,0,
0,0,0,0,0,0,0,0,0,0,0,0,0,0,0,0,0,0,0,0,0,0,0,0,0,
0,0,0,0,0,0,0,0,0,0,0,0,0,0,0,0,0,0,0,0,0,0,0,0,0,
0,0,0,0,0,0,0,0,0,0,0,0,0,0,0,0,0,0,0,0,0,0,0,0,0,
0,0,0,0,0,0,0,0,0,0,0,0,0,0,0,0,0,0,0,0,0,0,0,0,0,
0,0,0,0,0,0,0,0,0,0,0,0,0,0,0,0,0,0,0,0,0,0,0,0,0,
0,0,0,0,0,0,0,0,0,0,0,0,0,0,0,0,0,0,0,0,0,0,0,0,0,
0,0,0,0,0,0,0,0,0,0,0,0,0,0,0,0,0,0,0,0,0,0,0,0,0,
0,0,0,0,0,0,0,0,0,0,0,0,0,0,0,0,0,0,0,0,0,0,0,0,0,
0,0,0,0,0,0,0,0,0,0,0,0,0,0,0,0,0,0,0,0,0,0,0,0,0,
0,0,0,0,0,0,0,0,0,0,0,0,0,0,0,0,0,0,0,0,0,0,0,0,0,
0,0,0,0,0,0,0,0,0,0,0,0,0,0,0,0,0,0,0,0,0,0,0,0,0,
0,0,0,0,0,0,0,0,0,0,0,0,0,0,0,0,0,0,0,0,0,0,0,0,0,
0,0,0,0,0,0,0,0,0,0,0,0,0,0,0,0,0,0,0,0,0,0,0,0,0,
0,0,0,0,0,0,0,0,0,0,0,0,0,0,0,0,0,0,0,0,0,0,0,0,0,
0,0,0,0,0,0,0,0,0,0,0,0,0,0,0,0,0,0,0,0,0,0,0,0,0,
0,0,0,0,0,0,0,0,0,0,0,0,0,0,0,0,0,0,0,0,0,0,0,0,0,
0,0,0,0,0,0,0,0,0,0,0,0,0,0,0,0,0,0,0,0,0,0,0,0,0,
0,0,0,0,0,0,0,0,0,0,0,0,0,0,0,0,0,0,0,0,0,0,0,0,0,
0,0,0,0,0,0,0,0,0,0,0,0,0,0,0,0,0,0,0,0,0,0,0,0,0,
0,0,0,0,0,0,0,0,0,0,0,0,0,0,0,0,0,0,0,0,0,0,0,0,0,
0,0,0,0,0,0,0,0,0,0,0,0,0,0,0,0,0,0,0,0,0,0,0,0,0,
0,0,0,0,0,0,0,0,0,0,0,0,0,0,0,0,0,0,0,0,0,0,0,0,0,
0,0,0,0,0,0,0,0,0,0,0,0,0,0,0,0,0,0,0,0,0,0,0,0,0,
0,0,0,0,0,0,0,0,0,0,0,0,0,0,0,0,0,0,0,0,0,0,0,0,0,
0,0,0,0,0,0,0,0,0,0,0,0,0,0,0,0,0,0,0,0,0,0,0,0,0,
0,0,0,0,0,0,0,0,0,0,0,0,0,0,0,0,0,0,0,0,0,0,0,0,0,
0,0,0,0,0,0,0,0,0,0,0,0,0,0,0,0,0,0,0,0,0,0,0,0,0,
0,0,0,0,0,0,0,0,0,0,0,0,0,0,0,0,0,0,0,0,0,0,0,0,0,
0,0,0,0,0,0,0,0,0,0,0,0,0,0,0,0,0,0,0,0,0,0,0,0,0,
0,0,0,0,0,0,0,0,0,0,0,0,0,0,0,0,0,0,0,0,0,0,0,0,0,
0,0,0,0,0,0,0,0,0,0,0,0,0,0,0,0,0,0,0,0,0,0,0,0,0,
0,0,0,0,0,0,0,0,0,0,0,0,0,0,0,0,0,0,0,0,0,0,0,0,0,
0,0,0,0,0,0,0,0,0,0,0,0,0,0,0,0,0,0,0,0,0,0,0,0,0,
0,0,0,0,0,0,0,0,0,0,0,0,0,0,0,0,0,0,0,0,0,0,0,0,0,
0,0,0,0,0,0,0,0,0,0,0,0,0,0,0,0,0,0,0,0,0,0,0,0,0,
0,0,0,0,0,0,0,0,0,0,0,0,0,0,0,0,0,0,0,0,0,0,0,0,0,
0,0,0,0,0,0,0,0,0,0,0,0,0,0,0,0,0,0,0,0,0,0,0,0,0,
0,0,0,0,0,0,0,0,0,0,0,0,0,0,0,0,0,0,0,0,0,0,0,0,0,
0,0,0,0,0,0,0,0,0,0,0,0,0,0,0,0,0,0,0,0,0,0,0,0,0,
0,0,0,0,0,0,0,0,0,0,0,0,0,0,0,0,0,0,0,0,0,0,0,0,0,
0,0,0,0,0,0,0,0,0,0,0,0,0,0,0,0,0,0,0,0,0,0,0,0,0,
0,0,0,0,0,0,0,0,0,0,0,0,0,0,0,0,0,0,0,0,0,0,0,0,0,
0,0,0,0,0,0,0,0,0,0,0,0,0,0,0,0,0,0,0,0,0,0,0,0,0,
0,0,0,0,0,0,0,0,0,0,0,0,0,0,0,0,0,0,0,0,0,0,0,0,0,
0,0,0,0,0,0,0,0,0,0,0,0,0,0,0,0,0,0,0,0,0,0,0,0,0,
0,0,0,0,0,0,0,0,0,0,0,0,0,0,0,0,0,0,0,0,0,0,0,0,0,
0,0,0,0,0,0,0,0,0,0,0,0,0,0,0,0,0,0,0,0,0,0,0,0,0,
0,0,0,0,0,0,0,0,0,0,0,0,0,0,0,0,0,0,0,0,0,0,0,0,0,
0,0,0,0,0,0,0,0,0,0,0,0,0,0,0,0,0,0,0,0,0,0,0,0,0,
0,0,0,0,0,0,0,0,0,0,0,0,0,0,0,0,0,0,0,0,0,0,0,0,0,
0,0,0,0,0,0,0,0,0,0,0,0,0,0,0,0,0,0,0,0,0,0,0,0,0,
0,0,0,0,0,0,0,0,0,0,0,0,0,0,0,0,0,0,0,0,0,0,0,0,0,
0,0,0,0,0,0,0,0,0,0,0,0,0,0,0,0,0,0,0,0,0,0,0,0,0,
0,0,0,0,0,0,0,0,0,0,0,0,0,0,0,0,0,0,0,0,0,0,0,0,0,
0,0,0,0,0,0,0,0,0,0,0,0,0,0,0,0,0,0,0,0,0,0,0,0,0,
0,0,0,0,0,0,0,0,0,0,0,0,0,0,0,0,0,0,0,0,0,0,0,0,0,
0,0,0,0,0,0,0,0,0,0,0,0,0,0,0,0,0,0,0,0,0,0,0,0,0,
0,0,0,0,0,0,0,0,0,0,0,0,0,0,0,0,0,0,0,0,0,0,0,0,0,
0,0,0,0,0,0,0,0,0,0,0,0,0,0,0,0,0,0,0,0,0,0,0,0,0,
0,0,0,0,0,0,0,0,0,0,0,0,0,0,0,0,0,0,0,0,0,0,0,0,0
</data>
 </layer>
</map>
